; generated by Slic3r 1.3.0 on 2020-03-27 at 15:48:35

; external perimeters extrusion width = 0.40mm (4.28mm^3/s)
; perimeters extrusion width = 0.40mm (4.28mm^3/s)
; infill extrusion width = 0.40mm (5.71mm^3/s)
; solid infill extrusion width = 0.40mm (5.71mm^3/s)
; top infill extrusion width = 0.40mm (5.71mm^3/s)

M107
M83
T0
M116
; Filament gcode

G21 ; set units to millimeters
G90 ; use absolute coordinates
M83 ; use relative distances for extrusion
G1 E-1.50000 F3000.00000
G1 Z0.400 F15000.000
G1 X15.997 Y-8.586 F15000.000
G1 Z0.300 F15000.000
G1 E1.50000 F3000.00000
G1 F960
G1 X16.840 Y-8.514 E0.06517
G1 X17.632 Y-8.333 E0.06259
G1 X18.045 Y-8.189 E0.03373
G1 X18.780 Y-7.835 E0.06290
G1 X19.150 Y-7.603 E0.03365
G1 X19.786 Y-7.095 E0.06274
G1 X20.095 Y-6.786 E0.03365
G1 X20.603 Y-6.150 E0.06274
G1 X20.835 Y-5.780 E0.03365
G1 X21.188 Y-5.047 E0.06274
G1 X21.332 Y-4.636 E0.03356
G1 X21.513 Y-3.844 E0.06259
G1 X21.586 Y-2.997 E0.06549
G1 X21.586 Y2.997 E0.46196
G1 X21.514 Y3.841 E0.06526
G1 X21.332 Y4.635 E0.06274
G1 X21.188 Y5.047 E0.03365
G1 X20.835 Y5.780 E0.06274
G1 X20.603 Y6.150 E0.03365
G1 X20.095 Y6.786 E0.06274
G1 X19.786 Y7.095 E0.03365
G1 X19.150 Y7.603 E0.06274
G1 X18.780 Y7.835 E0.03365
G1 X18.047 Y8.188 E0.06274
G1 X17.635 Y8.332 E0.03365
G1 X16.841 Y8.514 E0.06274
G1 X15.997 Y8.586 E0.06526
G1 X-15.997 Y8.586 E2.46566
G1 X-16.404 Y8.563 E0.03142
G1 X-16.841 Y8.514 E0.03386
G1 X-17.635 Y8.332 E0.06274
G1 X-18.047 Y8.188 E0.03365
G1 X-18.780 Y7.835 E0.06274
G1 X-19.150 Y7.603 E0.03365
G1 X-19.786 Y7.095 E0.06274
G1 X-20.095 Y6.786 E0.03365
G1 X-20.603 Y6.150 E0.06274
G1 X-20.835 Y5.780 E0.03365
G1 X-21.188 Y5.047 E0.06274
G1 X-21.332 Y4.635 E0.03365
G1 X-21.514 Y3.841 E0.06274
G1 X-21.586 Y2.997 E0.06526
G1 X-21.586 Y-2.997 E0.46196
G1 X-21.514 Y-3.841 E0.06526
G1 X-21.332 Y-4.635 E0.06274
G1 X-21.188 Y-5.047 E0.03365
G1 X-20.835 Y-5.780 E0.06274
G1 X-20.603 Y-6.150 E0.03365
G1 X-20.095 Y-6.786 E0.06274
G1 X-19.786 Y-7.095 E0.03365
G1 X-19.150 Y-7.603 E0.06274
G1 X-18.781 Y-7.834 E0.03356
G1 X-18.050 Y-8.187 E0.06259
G1 X-17.636 Y-8.332 E0.03373
G1 X-16.841 Y-8.514 E0.06289
G1 X-15.997 Y-8.586 E0.06526
G1 X15.937 Y-8.586 E2.46104
G1 E-1.50000 F3000.00000
G1 Z0.700 F15000.000
G1 X14.207 Y-3.182 F15000.000
G1 Z0.300 F15000.000
G1 E1.50000 F3000.00000
G1 F600
G1 X14.933 Y-2.801 E0.06322
G1 X15.547 Y-2.257 E0.06322
G1 X16.014 Y-1.580 E0.06334
G1 X16.308 Y-0.785 E0.06530
G1 X16.403 Y0.000 E0.06096
G1 X16.304 Y0.814 E0.06322
G1 X16.013 Y1.581 E0.06322
G1 X15.547 Y2.257 E0.06322
G1 X14.933 Y2.801 E0.06322
G1 X14.207 Y3.182 E0.06322
G1 X13.410 Y3.378 E0.06322
G1 X12.590 Y3.378 E0.06322
G1 X11.792 Y3.181 E0.06334
G1 X11.045 Y2.781 E0.06530
G1 X10.453 Y2.257 E0.06096
G1 X9.987 Y1.581 E0.06322
G1 X9.696 Y0.814 E0.06322
G1 X9.597 Y-0.000 E0.06322
G1 X9.696 Y-0.814 E0.06322
G1 X9.987 Y-1.581 E0.06322
G1 X10.453 Y-2.257 E0.06322
G1 X11.067 Y-2.801 E0.06322
G1 X11.793 Y-3.182 E0.06322
G1 X12.591 Y-3.378 E0.06334
G1 X13.439 Y-3.371 E0.06530
G1 X14.148 Y-3.196 E0.05634
G1 X14.207 Y-3.182 F15000.000
G1 E-1.50000 F3000.00000
G1 Z0.700 F15000.000
G1 X9.279 Y-1.507 F15000.000
G1 Z0.300 F15000.000
G1 E1.50000 F3000.00000
G1 F720
G1 X9.074 Y-0.968 E0.04449
G1 X8.957 Y-0.000 E0.07512
G1 X9.074 Y0.968 E0.07512
G1 X9.420 Y1.879 E0.07512
G1 X9.974 Y2.681 E0.07512
G1 X10.679 Y3.306 E0.07264
G1 X11.369 Y3.676 E0.06031
G1 X11.296 Y3.964 E0.02292
G1 X-11.292 Y3.964 E1.74082
G1 X-11.364 Y3.674 E0.02303
G1 X-10.703 Y3.328 E0.05751
G1 X-9.974 Y2.681 E0.07512
G1 X-9.420 Y1.879 E0.07512
G1 X-9.074 Y0.968 E0.07512
G1 X-8.957 Y-0.000 E0.07512
G1 X-9.074 Y-0.968 E0.07512
G1 X-9.420 Y-1.879 E0.07512
G1 X-9.974 Y-2.681 E0.07512
G1 X-10.703 Y-3.328 E0.07512
G1 X-11.364 Y-3.674 E0.05751
G1 X-11.292 Y-3.964 E0.02303
G1 X11.292 Y-3.964 E1.74051
G1 X11.364 Y-3.674 E0.02303
G1 X10.703 Y-3.328 E0.05751
G1 X9.974 Y-2.681 E0.07512
G1 X9.420 Y-1.879 E0.07512
G1 X9.300 Y-1.563 E0.02600
G1 E-1.50000 F3000.00000
G1 Z0.700 F15000.000
G1 X15.274 Y-3.340 F15000.000
G1 Z0.300 F15000.000
G1 E1.50000 F3000.00000
G1 F600
G1 X14.636 Y-3.674 E0.05549
G1 X14.708 Y-3.964 E0.02303
G1 X15.942 Y-3.964 E0.09512
G1 X16.212 Y-3.934 E0.02098
G1 X16.416 Y-3.863 E0.01661
G1 X16.597 Y-3.749 E0.01651
G1 X16.749 Y-3.597 E0.01653
G1 X16.863 Y-3.416 E0.01653
G1 X16.934 Y-3.214 E0.01647
G1 X16.964 Y-2.942 E0.02112
G1 X16.964 Y-1.749 E0.09193
G1 X16.650 Y-1.692 E0.02460
G1 X16.583 Y-1.875 E0.01503
G1 X16.026 Y-2.681 E0.07545
G1 X15.322 Y-3.305 E0.07251
G1 E-1.50000 F3000.00000
G1 Z0.700 F15000.000
G1 X16.640 Y3.706 F15000.000
G1 Z0.300 F15000.000
G1 E1.50000 F3000.00000
G1 F600
G1 X16.416 Y3.863 E0.02106
G1 X16.213 Y3.934 E0.01653
G1 X15.942 Y3.964 E0.02104
G1 X14.708 Y3.964 E0.09512
G1 X14.636 Y3.674 E0.02303
G1 X15.297 Y3.328 E0.05751
G1 X16.026 Y2.681 E0.07512
G1 X16.580 Y1.879 E0.07512
G1 X16.652 Y1.690 E0.01557
G1 X16.964 Y1.747 E0.02449
G1 X16.964 Y2.942 E0.09206
G1 X16.934 Y3.213 E0.02104
G1 X16.863 Y3.416 E0.01653
G1 X16.749 Y3.597 E0.01653
G1 X16.682 Y3.664 E0.00729
G1 E-1.50000 F3000.00000
G1 Z0.700 F15000.000
G1 X-9.654 Y0.466 F15000.000
G1 Z0.300 F15000.000
G1 E1.50000 F3000.00000
G1 F600
G1 X-9.696 Y0.814 E0.02702
G1 X-9.987 Y1.581 E0.06322
G1 X-10.453 Y2.257 E0.06322
G1 X-11.067 Y2.801 E0.06322
G1 X-11.793 Y3.182 E0.06322
G1 X-12.590 Y3.378 E0.06322
G1 X-13.410 Y3.378 E0.06322
G1 X-14.207 Y3.182 E0.06322
G1 X-14.933 Y2.801 E0.06322
G1 X-15.547 Y2.257 E0.06322
G1 X-16.014 Y1.580 E0.06334
G1 X-16.308 Y0.785 E0.06530
G1 X-16.403 Y-0.000 E0.06096
G1 X-16.304 Y-0.814 E0.06322
G1 X-16.013 Y-1.581 E0.06322
G1 X-15.546 Y-2.258 E0.06334
G1 X-14.907 Y-2.814 E0.06530
G1 X-14.207 Y-3.182 E0.06096
G1 X-13.409 Y-3.378 E0.06334
G1 X-12.561 Y-3.371 E0.06530
G1 X-11.793 Y-3.182 E0.06096
G1 X-11.067 Y-2.801 E0.06322
G1 X-10.453 Y-2.257 E0.06322
G1 X-9.987 Y-1.581 E0.06322
G1 X-9.696 Y-0.814 E0.06322
G1 X-9.597 Y-0.000 E0.06322
G1 X-9.646 Y0.407 E0.03158
G1 X-9.363 Y0.662 F15000.000
G1 E-1.50000 F3000.00000
G1 Z0.700 F15000.000
G1 X-15.768 Y-2.907 F15000.000
G1 Z0.300 F15000.000
G1 E1.50000 F3000.00000
G1 F600
G1 X-16.024 Y-2.685 E0.02612
G1 X-16.580 Y-1.879 E0.07545
G1 X-16.652 Y-1.690 E0.01557
G1 X-16.964 Y-1.747 E0.02449
G1 X-16.964 Y-2.942 E0.09206
G1 X-16.934 Y-3.213 E0.02104
G1 X-16.863 Y-3.416 E0.01653
G1 X-16.749 Y-3.597 E0.01653
G1 X-16.597 Y-3.749 E0.01653
G1 X-16.416 Y-3.863 E0.01647
G1 X-16.213 Y-3.934 E0.01661
G1 X-15.942 Y-3.964 E0.02102
G1 X-14.708 Y-3.964 E0.09512
G1 X-14.636 Y-3.674 E0.02303
G1 X-15.268 Y-3.342 E0.05503
G1 X-15.723 Y-2.947 E0.04645
G1 E-1.50000 F3000.00000
G1 Z0.700 F15000.000
G1 X-16.213 Y3.934 F15000.000
G1 Z0.300 F15000.000
G1 E1.50000 F3000.00000
G1 F600
G1 X-16.416 Y3.863 E0.01653
G1 X-16.597 Y3.749 E0.01653
G1 X-16.749 Y3.597 E0.01653
G1 X-16.863 Y3.416 E0.01653
G1 X-16.934 Y3.213 E0.01653
G1 X-16.964 Y2.942 E0.02104
G1 X-16.964 Y1.749 E0.09195
G1 X-16.650 Y1.692 E0.02460
G1 X-16.583 Y1.875 E0.01503
G1 X-16.026 Y2.681 E0.07545
G1 X-15.297 Y3.328 E0.07512
G1 X-14.636 Y3.674 E0.05751
G1 X-14.708 Y3.964 E0.02303
G1 X-15.942 Y3.964 E0.09512
G1 X-16.154 Y3.941 E0.01642
G1 X-16.225 Y4.572 F15000.000
G1 F720
G1 X-16.355 Y4.557 E0.01014
G1 X-16.693 Y4.439 E0.02757
G1 X-16.996 Y4.249 E0.02757
G1 X-17.249 Y3.996 E0.02757
G1 X-17.439 Y3.693 E0.02757
G1 X-17.557 Y3.355 E0.02757
G1 X-17.600 Y2.978 E0.02931
G1 X-17.600 Y-2.978 E0.45893
G1 X-17.557 Y-3.355 E0.02931
G1 X-17.439 Y-3.693 E0.02757
G1 X-17.249 Y-3.996 E0.02757
G1 X-16.996 Y-4.249 E0.02757
G1 X-16.694 Y-4.439 E0.02749
G1 X-16.355 Y-4.557 E0.02765
G1 X-15.978 Y-4.600 E0.02930
G1 X15.978 Y-4.600 E2.46263
G1 X16.354 Y-4.558 E0.02923
G1 X16.693 Y-4.439 E0.02765
G1 X16.996 Y-4.249 E0.02756
G1 X17.249 Y-3.996 E0.02757
G1 X17.439 Y-3.693 E0.02757
G1 X17.557 Y-3.356 E0.02749
G1 X17.600 Y-2.977 E0.02939
G1 X17.600 Y2.978 E0.45892
G1 X17.557 Y3.355 E0.02931
G1 X17.439 Y3.693 E0.02757
G1 X17.249 Y3.996 E0.02757
G1 X16.996 Y4.249 E0.02757
G1 X16.693 Y4.439 E0.02757
G1 X16.355 Y4.557 E0.02757
G1 X15.978 Y4.600 E0.02931
G1 X-15.978 Y4.600 E2.46263
G1 X-16.165 Y4.579 E0.01454
G1 X-16.282 Y4.454 F15000.000
G1 X-16.116 Y3.625 F15000.000
G1 F960
G1 X-16.411 Y3.057 E0.03101
G1 X-16.647 Y2.530 E0.02800
G1 X-16.647 Y2.808 F15000.000
G1 F960
G1 X-16.229 Y3.287 E0.03552
G1 X-15.634 Y3.647 E0.03886
G1 X-14.360 Y3.883 F15000.000
G1 F960
G1 X-14.080 Y3.917 E0.02217
G1 F960
G1 X-13.449 Y3.989 E0.04389
G1 X-12.551 Y3.989 E0.06200
G1 X-12.200 Y3.951 E0.02441
G1 F960
G1 X-11.640 Y3.883 E0.04433
G1 X-10.401 Y3.647 F15000.000
G1 F960
G1 X-10.247 Y3.472 E0.00409
G1 F960
G1 X-9.937 Y3.123 E0.00346
G1 E-1.50000 F3000.00000
G1 Z0.700 F15000.000
G1 X-9.937 Y-3.123 F15000.000
G1 Z0.300 F15000.000
G1 E1.50000 F3000.00000
G1 F960
G1 X-10.247 Y-3.472 E0.00346
G1 F960
G1 X-10.401 Y-3.647 E0.00409
G1 X-9.254 Y-3.261 F15000.000
G1 F960
G1 X-9.119 Y-3.396 E0.01512
G1 X-8.194 Y-3.396 E0.07335
G1 X-9.149 Y-2.441 E0.10714
G1 X-8.920 Y-2.109 E0.03197
G1 X-8.820 Y-1.845 E0.02240
G1 X-7.269 Y-3.396 E0.17397
G1 X-6.344 Y-3.396 E0.07335
G1 X-8.566 Y-1.174 E0.24918
G1 X-8.520 Y-1.053 E0.01026
G1 X-8.438 Y-0.377 E0.05401
G1 X-5.419 Y-3.396 E0.33857
G1 X-4.494 Y-3.396 E0.07335
G1 X-8.443 Y0.553 E0.44286
G1 X-8.520 Y1.188 E0.05078
G1 X-8.744 Y1.779 E0.05008
G1 X-3.569 Y-3.396 E0.58037
G1 X-2.644 Y-3.396 E0.07335
G1 X-9.144 Y3.104 E0.72896
G1 X-9.060 Y3.178 E0.00885
G1 X-9.254 Y3.396 E0.02315
G1 X-8.511 Y3.396 E0.05888
G1 X-1.719 Y-3.396 E0.76177
G1 X-0.794 Y-3.396 E0.07335
G1 X-7.586 Y3.396 E0.76177
G1 X-6.661 Y3.396 E0.07335
G1 X0.131 Y-3.396 E0.76177
G1 X1.056 Y-3.396 E0.07335
G1 X-5.736 Y3.396 E0.76177
G1 X-4.812 Y3.396 E0.07335
G1 X1.981 Y-3.396 E0.76177
G1 X2.906 Y-3.396 E0.07335
G1 X-3.887 Y3.396 E0.76177
G1 X-2.962 Y3.396 E0.07335
G1 X3.831 Y-3.396 E0.76177
G1 X4.756 Y-3.396 E0.07335
G1 X-2.037 Y3.396 E0.76177
G1 X-1.112 Y3.396 E0.07335
G1 X5.681 Y-3.396 E0.76177
G1 X6.606 Y-3.396 E0.07335
G1 X-0.187 Y3.396 E0.76177
G1 X0.738 Y3.396 E0.07335
G1 X7.531 Y-3.396 E0.76177
G1 X8.456 Y-3.396 E0.07335
G1 X1.663 Y3.396 E0.76177
G1 X2.588 Y3.396 E0.07335
G1 X9.114 Y-3.130 E0.73189
G1 X9.373 Y-2.900 E0.02744
G1 X8.920 Y-2.244 E0.06325
G1 X8.778 Y-1.868 E0.03186
G1 X3.513 Y3.396 E0.59041
G1 X4.438 Y3.396 E0.07335
G1 X8.451 Y-0.616 E0.44996
G1 X8.384 Y-0.067 E0.04381
G1 X8.432 Y0.328 E0.03157
G1 X5.363 Y3.396 E0.34413
G1 X6.288 Y3.396 E0.07335
G1 X8.551 Y1.134 E0.25370
G1 X8.805 Y1.805 E0.05688
G1 X7.213 Y3.396 E0.17849
G1 X8.138 Y3.396 E0.07335
G1 X9.127 Y2.408 E0.11083
G1 X9.373 Y2.765 E0.03445
G1 X9.060 Y3.043 E0.03317
G1 X9.215 Y3.217 E0.01850
G1 X9.184 Y3.245 E0.00330
G1 X9.198 Y3.261 E0.00173
G1 X9.063 Y3.396 E0.01513
G1 X9.937 Y3.123 F15000.000
G1 F960
G1 X10.092 Y3.297 E0.00173
G1 F960
G1 X10.401 Y3.647 E0.00817
G1 X11.644 Y3.883 F15000.000
G1 F960
G1 X11.923 Y3.917 E0.02201
G1 F960
G1 X12.551 Y3.989 E0.04368
G1 X13.449 Y3.989 E0.06200
G1 X13.800 Y3.951 E0.02441
G1 F960
G1 X14.360 Y3.883 E0.04433
G1 X15.634 Y3.647 F15000.000
G1 F960
G1 X16.229 Y3.287 E0.03959
G1 X16.647 Y2.808 E0.03619
G1 X16.647 Y2.530 F15000.000
G1 F960
G1 X16.411 Y3.057 E0.02615
G1 X16.116 Y3.625 E0.02896
G1 E-1.50000 F3000.00000
G1 Z0.700 F15000.000
G1 X16.865 Y1.406 F15000.000
G1 Z0.300 F15000.000
G1 E1.50000 F3000.00000
G1 F960
G1 X16.937 Y1.013 E0.03108
G1 X16.965 Y0.632 E0.02974
G1 F960
G1 X17.002 Y0.034 E0.04137
G1 F960
G1 X16.984 Y-0.323 E0.02150
G1 F960
G1 X16.949 Y-0.901 E0.03978
G1 F960
G1 X16.863 Y-1.408 E0.03869
G1 X16.647 Y-2.530 F15000.000
G1 F960
G1 X16.411 Y-3.057 E0.02613
G1 X16.116 Y-3.625 E0.02896
G1 X15.634 Y-3.647 F15000.000
G1 F960
G1 X16.229 Y-3.287 E0.03961
G1 X16.647 Y-2.808 E0.03619
G1 E-1.50000 F3000.00000
G1 Z0.700 F15000.000
G1 X14.360 Y-3.883 F15000.000
G1 Z0.300 F15000.000
G1 E1.50000 F3000.00000
G1 F960
G1 X13.820 Y-3.948 E0.04271
G1 F960
G1 X13.481 Y-3.985 E0.02378
G1 X12.557 Y-3.989 E0.06442
G1 X11.921 Y-3.917 E0.04458
G1 F960
G1 X11.640 Y-3.883 E0.02224
G1 X10.401 Y-3.647 F15000.000
G1 F960
G1 X10.092 Y-3.297 E0.00817
G1 F960
G1 X9.937 Y-3.123 E0.00173
G1 E-1.50000 F3000.00000
G1 Z0.700 F15000.000
G1 X-11.640 Y-3.883 F15000.000
G1 Z0.300 F15000.000
G1 E1.50000 F3000.00000
G1 F960
G1 X-12.180 Y-3.948 E0.04271
G1 F960
G1 X-12.519 Y-3.985 E0.02378
G1 X-13.443 Y-3.989 E0.06442
G1 X-14.079 Y-3.917 E0.04458
G1 F960
G1 X-14.360 Y-3.883 E0.02224
G1 X-15.627 Y-3.647 F15000.000
G1 F960
G1 X-16.228 Y-3.286 E0.03936
G1 X-16.647 Y-2.812 E0.03552
G1 X-16.647 Y-2.534 F15000.000
G1 F960
G1 X-16.408 Y-3.065 E0.02815
G1 X-16.114 Y-3.625 E0.03057
G1 E-1.50000 F3000.00000
G1 Z0.700 F15000.000
G1 X-16.865 Y-1.406 F15000.000
G1 Z0.300 F15000.000
G1 E1.50000 F3000.00000
G1 F960
G1 X-16.937 Y-1.013 E0.03108
G1 X-16.965 Y-0.632 E0.02974
G1 F960
G1 X-17.002 Y-0.034 E0.04137
G1 F960
G1 X-16.984 Y0.323 E0.02150
G1 F960
G1 X-16.949 Y0.901 E0.03978
G1 F960
G1 X-16.863 Y1.408 E0.03869
G1 E-1.50000 F3000.00000
G1 Z0.700 F15000.000
G1 X9.388 Y-0.000 F15000.000
G1 Z0.500 F15000.000
G1 E1.50000 F3000.00000
G1 F2400
G1 X9.493 Y-0.864 E0.02513
G1 X9.802 Y-1.678 E0.02513
G1 X10.297 Y-2.395 E0.02513
G1 X10.948 Y-2.972 E0.02513
G1 X11.719 Y-3.377 E0.02513
G1 X12.565 Y-3.585 E0.02513
G1 X13.435 Y-3.585 E0.02513
G1 X13.601 Y-3.544 E0.00493
G1 X14.281 Y-3.377 E0.02020
G1 X15.052 Y-2.972 E0.02513
G1 X15.703 Y-2.395 E0.02513
G1 X16.198 Y-1.678 E0.02513
G1 X16.507 Y-0.864 E0.02513
G1 X16.612 Y-0.000 E0.02513
G1 X16.507 Y0.864 E0.02513
G1 X16.198 Y1.678 E0.02513
G1 X15.703 Y2.395 E0.02513
G1 X15.052 Y2.972 E0.02513
G1 X14.281 Y3.377 E0.02513
G1 X13.435 Y3.585 E0.02513
G1 X12.565 Y3.585 E0.02513
G1 X11.719 Y3.377 E0.02513
G1 X10.948 Y2.972 E0.02513
G1 X10.297 Y2.395 E0.02513
G1 X9.802 Y1.678 E0.02513
G1 X9.493 Y0.864 E0.02513
G1 X9.396 Y0.060 E0.02340
G1 X9.750 Y0.017 F15000.000
G1 F3000
G1 X9.843 Y-0.778 E0.02309
G1 X10.121 Y-1.511 E0.02263
G1 X10.566 Y-2.156 E0.02263
G1 X11.153 Y-2.676 E0.02263
G1 X11.847 Y-3.041 E0.02263
G1 X12.608 Y-3.228 E0.02263
G1 X13.392 Y-3.228 E0.02263
G1 X13.516 Y-3.198 E0.00367
G1 X14.153 Y-3.041 E0.01895
G1 X14.847 Y-2.676 E0.02263
G1 X15.434 Y-2.156 E0.02263
G1 X15.879 Y-1.511 E0.02263
G1 X16.157 Y-0.778 E0.02263
G1 X16.252 Y-0.000 E0.02263
G1 X16.157 Y0.778 E0.02263
G1 X15.879 Y1.511 E0.02263
G1 X15.434 Y2.156 E0.02263
G1 X14.847 Y2.676 E0.02263
G1 X14.153 Y3.041 E0.02263
G1 X13.392 Y3.228 E0.02263
G1 X12.608 Y3.228 E0.02263
G1 X11.847 Y3.041 E0.02263
G1 X11.153 Y2.676 E0.02263
G1 X10.566 Y2.156 E0.02263
G1 X10.121 Y1.511 E0.02263
G1 X9.843 Y0.778 E0.02263
G1 X9.757 Y0.076 E0.02041
G1 X9.735 Y0.011 F15000.000
G1 X-9.388 Y-0.000 F15000.000
G1 F2400
G1 X-9.493 Y0.864 E0.02513
G1 X-9.802 Y1.678 E0.02513
G1 X-10.297 Y2.395 E0.02513
G1 X-10.948 Y2.972 E0.02513
G1 X-11.719 Y3.377 E0.02513
G1 X-12.565 Y3.585 E0.02513
G1 X-13.435 Y3.585 E0.02513
G1 X-14.281 Y3.377 E0.02513
G1 X-15.052 Y2.972 E0.02513
G1 X-15.703 Y2.395 E0.02513
G1 X-16.199 Y1.677 E0.02518
G1 X-16.509 Y0.843 E0.02568
G1 X-16.612 Y-0.000 E0.02451
G1 X-16.507 Y-0.864 E0.02513
G1 X-16.198 Y-1.678 E0.02513
G1 X-15.703 Y-2.395 E0.02513
G1 X-15.052 Y-2.972 E0.02513
G1 X-14.281 Y-3.377 E0.02513
G1 X-13.435 Y-3.585 E0.02513
G1 X-12.565 Y-3.585 E0.02513
G1 X-11.719 Y-3.377 E0.02513
G1 X-10.948 Y-2.972 E0.02513
G1 X-10.297 Y-2.395 E0.02513
G1 X-9.802 Y-1.678 E0.02513
G1 X-9.493 Y-0.864 E0.02513
G1 X-9.396 Y-0.060 E0.02340
G1 X-9.750 Y-0.017 F15000.000
G1 F3000
G1 X-9.843 Y0.778 E0.02309
G1 X-10.121 Y1.511 E0.02263
G1 X-10.566 Y2.156 E0.02263
G1 X-11.153 Y2.676 E0.02263
G1 X-11.847 Y3.041 E0.02263
G1 X-12.608 Y3.228 E0.02263
G1 X-13.392 Y3.228 E0.02263
G1 X-14.153 Y3.041 E0.02263
G1 X-14.847 Y2.676 E0.02263
G1 X-15.434 Y2.156 E0.02263
G1 X-15.880 Y1.511 E0.02264
G1 X-16.160 Y0.758 E0.02318
G1 X-16.252 Y0.000 E0.02204
G1 X-16.157 Y-0.778 E0.02263
G1 X-15.879 Y-1.511 E0.02263
G1 X-15.434 Y-2.156 E0.02263
G1 X-14.847 Y-2.676 E0.02263
G1 X-14.153 Y-3.041 E0.02263
G1 X-13.392 Y-3.228 E0.02263
G1 X-12.608 Y-3.228 E0.02263
G1 X-11.847 Y-3.041 E0.02263
G1 X-11.153 Y-2.676 E0.02263
G1 X-10.566 Y-2.156 E0.02263
G1 X-10.121 Y-1.511 E0.02263
G1 X-9.843 Y-0.778 E0.02263
G1 X-9.757 Y-0.076 E0.02041
