; pcb2gcode 2.0.0 
; Software-independent Gcode 

; This file uses only one drill bit. Forced by 'onedrill' option 

G94       ;Millimeters per minute feed rate.
G21       ;Units == Millimeters.
G90       ;Absolute coordinates.
;G1 F3000 S10000     ;RPM spindle speed.

G1 F3000 Z3.00000 ;Retract
;T1
;M5      ;Spindle stop.
;G04 P1.00000
;MSG, Change tool bit to drill size 0.8 mm
;M6      ;Tool change.
;M0      ;Temporary machine stop.
;M3      ;Spindle on clockwise.
G1 F3000 Z3.00000
;G04 P1.00000

;F1000.00000
G1 F3000 X3.32000 Y22.37000
G1 F300 Z-2.50000
G1 F300 Z3.00000
G1 F3000 X3.32000 Y24.91000
G1 F300 Z-2.50000
G1 F300 Z3.00000
G1 F3000 X8.40000 Y22.37000
G1 F300 Z-2.50000
G1 F300 Z3.00000
G1 F3000 X8.40000 Y24.91000
G1 F300 Z-2.50000
G1 F300 Z3.00000
G1 F3000 X23.00500 Y38.67500
G1 F300 Z-2.50000
G1 F300 Z3.00000
G1 F3000 X25.54500 Y38.67500
G1 F300 Z-2.50000
G1 F300 Z3.00000
G1 F3000 X25.54500 Y44.59500
G1 F300 Z-2.50000
G1 F300 Z3.00000
G1 F3000 X23.00500 Y44.59500
G1 F300 Z-2.50000
G1 F300 Z3.00000
G1 F3000 X18.94500 Y50.94500
G1 F300 Z-2.50000
G1 F300 Z3.00000
G1 F3000 X21.48500 Y50.94500
G1 F300 Z-2.50000
G1 F300 Z3.00000
G1 F3000 X24.02500 Y50.94500
G1 F300 Z-2.50000
G1 F300 Z3.00000
G1 F3000 X26.56500 Y50.94500
G1 F300 Z-2.50000
G1 F300 Z3.00000
G1 F3000 X29.10500 Y50.94500
G1 F300 Z-2.50000
G1 F300 Z3.00000
G1 F3000 X31.64500 Y50.94500
G1 F300 Z-2.50000
G1 F300 Z3.00000
G1 F3000 X34.18500 Y50.94500
G1 F300 Z-2.50000
G1 F300 Z3.00000
G1 F3000 X36.72500 Y50.94500
G1 F300 Z-2.50000
G1 F300 Z3.00000
G1 F3000 X39.26500 Y50.94500
G1 F300 Z-2.50000
G1 F300 Z3.00000
G1 F3000 X41.80500 Y50.94500
G1 F300 Z-2.50000
G1 F300 Z3.00000
G1 F3000 X45.86500 Y50.94500
G1 F300 Z-2.50000
G1 F300 Z3.00000
G1 F3000 X48.40500 Y50.94500
G1 F300 Z-2.50000
G1 F300 Z3.00000
G1 F3000 X50.94500 Y50.94500
G1 F300 Z-2.50000
G1 F300 Z3.00000
G1 F3000 X53.48500 Y50.94500
G1 F300 Z-2.50000
G1 F300 Z3.00000
G1 F3000 X56.02500 Y50.94500
G1 F300 Z-2.50000
G1 F300 Z3.00000
G1 F3000 X58.56500 Y50.94500
G1 F300 Z-2.50000
G1 F300 Z3.00000
G1 F3000 X61.10500 Y50.94500
G1 F300 Z-2.50000
G1 F300 Z3.00000
G1 F3000 X63.64500 Y50.94500
G1 F300 Z-2.50000
G1 F300 Z3.00000
G1 F3000 X63.64500 Y21.73500
G1 F300 Z-2.50000
G1 F300 Z3.00000
G1 F3000 X63.64500 Y19.19500
G1 F300 Z-2.50000
G1 F300 Z3.00000
G1 F3000 X57.29500 Y21.73500
G1 F300 Z-2.50000
G1 F300 Z3.00000
G1 F3000 X57.29500 Y19.19500
G1 F300 Z-2.50000
G1 F300 Z3.00000
G1 F3000 X60.47000 Y14.11500
G1 F300 Z-2.50000
G1 F300 Z3.00000
G1 F3000 X54.12000 Y14.11500
G1 F300 Z-2.50000
G1 F300 Z3.00000
G1 F3000 X63.64500 Y2.68500
G1 F300 Z-2.50000
G1 F300 Z3.00000
G1 F3000 X61.10500 Y2.68500
G1 F300 Z-2.50000
G1 F300 Z3.00000
G1 F3000 X58.56500 Y2.68500
G1 F300 Z-2.50000
G1 F300 Z3.00000
G1 F3000 X56.02500 Y2.68500
G1 F300 Z-2.50000
G1 F300 Z3.00000
G1 F3000 X53.48500 Y2.68500
G1 F300 Z-2.50000
G1 F300 Z3.00000
G1 F3000 X50.94500 Y2.68500
G1 F300 Z-2.50000
G1 F300 Z3.00000
G1 F3000 X48.40500 Y5.86000
G1 F300 Z-2.50000
G1 F300 Z3.00000
G1 F3000 X45.86500 Y5.86000
G1 F300 Z-2.50000
G1 F300 Z3.00000
G1 F3000 X45.86500 Y2.68500
G1 F300 Z-2.50000
G1 F300 Z3.00000
G1 F3000 X43.32500 Y2.68500
G1 F300 Z-2.50000
G1 F300 Z3.00000
G1 F3000 X40.78500 Y2.68500
G1 F300 Z-2.50000
G1 F300 Z3.00000
G1 F3000 X38.24500 Y2.68500
G1 F300 Z-2.50000
G1 F300 Z3.00000
G1 F3000 X35.70500 Y2.68500
G1 F300 Z-2.50000
G1 F300 Z3.00000
G1 F3000 X33.16500 Y2.68500
G1 F300 Z-2.50000
G1 F300 Z3.00000
G1 F3000 X30.62500 Y2.68500
G1 F300 Z-2.50000
G1 F300 Z3.00000
G1 F3000 X28.08500 Y2.68500
G1 F300 Z-2.50000
G1 F300 Z3.00000
G1 F3000 X28.08500 Y14.11500
G1 F300 Z-2.50000
G1 F300 Z3.00000
G1 F3000 X31.89500 Y21.73500
G1 F300 Z-2.50000
G1 F300 Z3.00000
G1 F3000 X31.89500 Y19.19500
G1 F300 Z-2.50000
G1 F300 Z3.00000
G1 F3000 X35.07000 Y14.11500
G1 F300 Z-2.50000
G1 F300 Z3.00000
G1 F3000 X38.24500 Y19.19500
G1 F300 Z-2.50000
G1 F300 Z3.00000
G1 F3000 X38.24500 Y21.73500
G1 F300 Z-2.50000
G1 F300 Z3.00000
G1 F3000 X44.59500 Y21.73500
G1 F300 Z-2.50000
G1 F300 Z3.00000
G1 F3000 X50.94500 Y21.73500
G1 F300 Z-2.50000
G1 F300 Z3.00000
G1 F3000 X50.94500 Y19.19500
G1 F300 Z-2.50000
G1 F300 Z3.00000
G1 F3000 X47.77000 Y14.11500
G1 F300 Z-2.50000
G1 F300 Z3.00000
G1 F3000 X44.59500 Y19.19500
G1 F300 Z-2.50000
G1 F300 Z3.00000
G1 F3000 X41.42000 Y14.11500
G1 F300 Z-2.50000
G1 F300 Z3.00000

G1 F3000 Z3.000 ; All done -- retract 

;M5      ;Spindle off.
;G04 P1.000000
;M9      ;Coolant off.
M0      ;Program end.

