; pcb2gcode 2.0.0 
; Software-independent Gcode 

G94 ; Millimeters per minute feed rate. 
G21 ; Units == Millimeters. 

G90 ; Absolute coordinates. 
;G1 F3000 S10000 ; RPM spindle speed. 
G1 F300 F600.00000 ; Feedrate. 


G1 F3000 Z3.00000 ;Retract to tool change height
;T0
;M5      ;Spindle stop.
;G04 P1.00000 ;Wait for spindle to stop
;MSG, Change tool bit to mill diameter 0.12000mm
;M6      ;Tool change.
;M0      ;Temporary machine stop.
;M3 ; Spindle on clockwise. 
;G04 P1.00000 ;Wait for spindle to get up to speed
;G04 P0 ; dwell for no time -- G64 should not smooth over this point 
G1 F3000 Z3.00000 ; retract 

G1 F3000 X0.61797 Y0.80502 ; rapid move to begin. 
G1 F300 F300.00000
G1 F300 Z-0.07000
;G04 P0 ; dwell for no time -- G64 should not smooth over this point 
G1 F300 F600.00000
G1 F300 X0.61797 Y0.80502
G1 F300 X0.61797 Y52.82501
G1 F300 X0.63222 Y52.89658
G1 F300 X0.68185 Y52.96471
G1 F300 X0.73342 Y52.99778
G1 F300 X0.80499 Y53.01203
G1 F300 X64.00662 Y53.01203
G1 F300 X64.07817 Y52.99778
G1 F300 X64.13883 Y52.95724
G1 F300 X65.66466 Y51.42976
G1 F300 X65.69773 Y51.37820
G1 F300 X65.71198 Y51.30662
G1 F300 X65.71198 Y43.05015
G1 F300 X65.68045 Y42.94626
G1 F300 X65.62887 Y42.89467
G1 F300 X65.56146 Y42.86676
G1 F300 X65.48277 Y42.86818
G1 F300 X65.39275 Y42.91794
G1 F300 X59.56777 Y48.74295
G1 F300 X59.51659 Y48.83868
G1 F300 X59.51659 Y50.09722
G1 F300 X59.54450 Y50.16464
G1 F300 X59.67950 Y50.36669
G1 F300 X59.73109 Y50.41828
G1 F300 X59.79850 Y50.44619
G1 F300 X59.87719 Y50.44477
G1 F300 X59.96705 Y50.39519
G1 F300 X60.13543 Y50.14962
G1 F300 X60.30940 Y49.97566
G1 F300 X60.51384 Y49.83906
G1 F300 X60.74097 Y49.74498
G1 F300 X60.98204 Y49.69702
G1 F300 X61.22791 Y49.69702
G1 F300 X61.46903 Y49.74500
G1 F300 X61.69608 Y49.83903
G1 F300 X61.90055 Y49.97566
G1 F300 X62.07454 Y50.14965
G1 F300 X62.24295 Y50.39519
G1 F300 X62.30342 Y50.43555
G1 F300 X62.37500 Y50.44980
G1 F300 X62.44655 Y50.43555
G1 F300 X62.50705 Y50.39519
G1 F300 X62.67543 Y50.14962
G1 F300 X62.84940 Y49.97566
G1 F300 X63.05384 Y49.83906
G1 F300 X63.28097 Y49.74498
G1 F300 X63.52204 Y49.69702
G1 F300 X63.76791 Y49.69702
G1 F300 X64.00898 Y49.74498
G1 F300 X64.23611 Y49.83906
G1 F300 X64.44055 Y49.97566
G1 F300 X64.61437 Y50.14947
G1 F300 X64.75094 Y50.35387
G1 F300 X64.84500 Y50.58097
G1 F300 X64.89298 Y50.82209
G1 F300 X64.89298 Y51.06796
G1 F300 X64.84500 Y51.30908
G1 F300 X64.75094 Y51.53616
G1 F300 X64.61437 Y51.74058
G1 F300 X64.44055 Y51.91442
G1 F300 X64.23611 Y52.05099
G1 F300 X64.00903 Y52.14505
G1 F300 X63.76789 Y52.19303
G1 F300 X63.52206 Y52.19303
G1 F300 X63.28094 Y52.14505
G1 F300 X63.05384 Y52.05099
G1 F300 X62.84940 Y51.91442
G1 F300 X62.67541 Y51.74043
G1 F300 X62.50705 Y51.49486
G1 F300 X62.44655 Y51.45450
G1 F300 X62.37500 Y51.44025
G1 F300 X62.30342 Y51.45450
G1 F300 X62.24295 Y51.49486
G1 F300 X62.07454 Y51.74040
G1 F300 X61.90055 Y51.91442
G1 F300 X61.69613 Y52.05099
G1 F300 X61.46903 Y52.14505
G1 F300 X61.22789 Y52.19303
G1 F300 X60.98206 Y52.19303
G1 F300 X60.74092 Y52.14505
G1 F300 X60.51384 Y52.05099
G1 F300 X60.30940 Y51.91442
G1 F300 X60.13543 Y51.74043
G1 F300 X59.96705 Y51.49486
G1 F300 X59.90655 Y51.45450
G1 F300 X59.83500 Y51.44025
G1 F300 X59.76342 Y51.45450
G1 F300 X59.70295 Y51.49486
G1 F300 X59.53454 Y51.74043
G1 F300 X59.36055 Y51.91442
G1 F300 X59.15611 Y52.05099
G1 F300 X58.92901 Y52.14505
G1 F300 X58.68789 Y52.19303
G1 F300 X58.44206 Y52.19303
G1 F300 X58.20092 Y52.14505
G1 F300 X57.97381 Y52.05099
G1 F300 X57.76940 Y51.91442
G1 F300 X57.59541 Y51.74040
G1 F300 X57.42705 Y51.49486
G1 F300 X57.36655 Y51.45450
G1 F300 X57.29500 Y51.44025
G1 F300 X57.22342 Y51.45450
G1 F300 X57.16295 Y51.49486
G1 F300 X56.99454 Y51.74043
G1 F300 X56.82053 Y51.91442
G1 F300 X56.61611 Y52.05099
G1 F300 X56.38903 Y52.14505
G1 F300 X56.14786 Y52.19303
G1 F300 X55.90206 Y52.19303
G1 F300 X55.66092 Y52.14505
G1 F300 X55.43384 Y52.05099
G1 F300 X55.22942 Y51.91442
G1 F300 X55.05541 Y51.74040
G1 F300 X54.88705 Y51.49486
G1 F300 X54.82655 Y51.45450
G1 F300 X54.75500 Y51.44025
G1 F300 X54.68342 Y51.45450
G1 F300 X54.62295 Y51.49486
G1 F300 X54.45457 Y51.74038
G1 F300 X54.28053 Y51.91442
G1 F300 X54.07611 Y52.05099
G1 F300 X53.84903 Y52.14505
G1 F300 X53.60789 Y52.19303
G1 F300 X53.36206 Y52.19303
G1 F300 X53.12092 Y52.14505
G1 F300 X52.89384 Y52.05099
G1 F300 X52.68942 Y51.91442
G1 F300 X52.51541 Y51.74043
G1 F300 X52.34705 Y51.49486
G1 F300 X52.28655 Y51.45450
G1 F300 X52.21500 Y51.44025
G1 F300 X52.14342 Y51.45450
G1 F300 X52.08295 Y51.49486
G1 F300 X51.91454 Y51.74043
G1 F300 X51.74055 Y51.91442
G1 F300 X51.53613 Y52.05099
G1 F300 X51.30903 Y52.14505
G1 F300 X51.06789 Y52.19303
G1 F300 X50.82206 Y52.19303
G1 F300 X50.58092 Y52.14505
G1 F300 X50.35382 Y52.05099
G1 F300 X50.14940 Y51.91442
G1 F300 X49.97541 Y51.74043
G1 F300 X49.80705 Y51.49486
G1 F300 X49.74655 Y51.45450
G1 F300 X49.67500 Y51.44025
G1 F300 X49.60342 Y51.45450
G1 F300 X49.54295 Y51.49486
G1 F300 X49.37454 Y51.74043
G1 F300 X49.20055 Y51.91442
G1 F300 X48.99611 Y52.05099
G1 F300 X48.76901 Y52.14505
G1 F300 X48.52789 Y52.19303
G1 F300 X48.28206 Y52.19303
G1 F300 X48.04092 Y52.14505
G1 F300 X47.81384 Y52.05099
G1 F300 X47.60940 Y51.91442
G1 F300 X47.43541 Y51.74040
G1 F300 X47.26705 Y51.49486
G1 F300 X47.20655 Y51.45450
G1 F300 X47.13500 Y51.44025
G1 F300 X47.06342 Y51.45450
G1 F300 X47.00295 Y51.49486
G1 F300 X46.83454 Y51.74040
G1 F300 X46.66055 Y51.91442
G1 F300 X46.45611 Y52.05099
G1 F300 X46.22901 Y52.14505
G1 F300 X45.98789 Y52.19303
G1 F300 X45.74206 Y52.19303
G1 F300 X45.50092 Y52.14505
G1 F300 X45.27384 Y52.05099
G1 F300 X45.06940 Y51.91442
G1 F300 X44.89558 Y51.74060
G1 F300 X44.75901 Y51.53616
G1 F300 X44.66495 Y51.30906
G1 F300 X44.61697 Y51.06796
G1 F300 X44.61697 Y50.82209
G1 F300 X44.66495 Y50.58099
G1 F300 X44.75901 Y50.35389
G1 F300 X44.90021 Y50.13761
G1 F300 X44.91697 Y50.06075
G1 F300 X44.91700 Y48.87518
G1 F300 X44.88547 Y48.77127
G1 F300 X37.88114 Y41.76625
G1 F300 X37.77485 Y41.73303
G1 F300 X33.16533 Y41.73765
G1 F300 X32.97917 Y41.71931
G1 F300 X32.80043 Y41.66508
G1 F300 X32.63574 Y41.57707
G1 F300 X32.49142 Y41.45861
G1 F300 X32.37293 Y41.31423
G1 F300 X32.28489 Y41.14954
G1 F300 X32.23071 Y40.97090
G1 F300 X32.21235 Y40.78467
G1 F300 X32.21700 Y36.58849
G1 F300 X32.19299 Y36.49682
G1 F300 X32.06810 Y36.29796
G1 F300 X32.02825 Y36.16659
G1 F300 X32.01392 Y36.02085
G1 F300 X32.01392 Y35.38918
G1 F300 X32.02825 Y35.24346
G1 F300 X32.06810 Y35.11209
G1 F300 X32.13282 Y34.99101
G1 F300 X32.22025 Y34.88448
G1 F300 X32.31781 Y34.80046
G1 F300 X32.36089 Y34.69835
G1 F300 X32.35375 Y34.62573
G1 F300 X32.32589 Y34.57117
G1 F300 X32.22025 Y34.47556
G1 F300 X32.13279 Y34.36901
G1 F300 X32.06810 Y34.24795
G1 F300 X32.02825 Y34.11659
G1 F300 X32.01392 Y33.97084
G1 F300 X32.01392 Y33.33922
G1 F300 X32.02825 Y33.19345
G1 F300 X32.06810 Y33.06210
G1 F300 X32.19297 Y32.86320
G1 F300 X32.21674 Y32.77671
G1 F300 X32.21674 Y30.01060
G1 F300 X32.18842 Y29.91687
G1 F300 X32.03869 Y29.73346
G1 F300 X31.98319 Y29.68822
G1 F300 X31.91336 Y29.66701
G1 F300 X31.84075 Y29.67415
G1 F300 X31.77872 Y29.70671
G1 F300 X31.66330 Y29.85332
G1 F300 X31.51723 Y29.95093
G1 F300 X31.43280 Y29.97654
G1 F300 X31.31024 Y29.98510
G1 F300 X31.25898 Y29.93382
G1 F300 X31.25898 Y29.59500
G1 F300 X31.36795 Y29.59046
G1 F300 X31.40384 Y29.54672
G1 F300 X31.40498 Y28.63501
G1 F300 X31.39487 Y28.60169
G1 F300 X31.36795 Y28.57959
G1 F300 X31.25898 Y28.57502
G1 F300 X31.25898 Y28.23623
G1 F300 X31.32833 Y28.14761
G1 F300 X31.33897 Y28.03384
G1 F300 X31.29962 Y27.95404
G1 F300 X31.17664 Y27.85333
G1 F300 X31.07908 Y27.70730
G1 F300 X31.03798 Y27.50075
G1 F300 X30.96069 Y27.27085
G1 F300 X30.94697 Y27.13161
G1 F300 X30.94669 Y22.69426
G1 F300 X30.91652 Y22.59784
G1 F300 X30.74471 Y22.34988
G1 F300 X30.64687 Y22.11364
G1 F300 X30.59698 Y21.86286
G1 F300 X30.59698 Y21.60719
G1 F300 X30.64687 Y21.35641
G1 F300 X30.74471 Y21.12019
G1 F300 X30.86917 Y20.93393
G1 F300 X30.89708 Y20.86652
G1 F300 X30.88525 Y20.75578
G1 F300 X30.84590 Y20.69782
G1 F300 X30.78525 Y20.65728
G1 F300 X30.71370 Y20.64303
G1 F300 X27.95000 Y20.64303
G1 F300 X27.84367 Y20.67625
G1 F300 X27.79450 Y20.72614
G1 F300 X27.76328 Y20.82416
G1 F300 X27.76321 Y21.90764
G1 F300 X27.78698 Y21.99416
G1 F300 X27.91231 Y22.19319
G1 F300 X27.95180 Y22.32339
G1 F300 X27.96605 Y22.46797
G1 F300 X27.96605 Y22.93711
G1 F300 X27.95180 Y23.08166
G1 F300 X27.91233 Y23.21181
G1 F300 X27.84815 Y23.33190
G1 F300 X27.72475 Y23.48465
G1 F300 X27.70232 Y23.59354
G1 F300 X27.74040 Y23.68897
G1 F300 X27.83288 Y23.77119
G1 F300 X27.93087 Y23.91777
G1 F300 X27.95650 Y24.00220
G1 F300 X27.96417 Y24.21315
G1 F300 X27.91378 Y24.26352
G1 F300 X27.56613 Y24.26352
G1 F300 X27.52684 Y24.17005
G1 F300 X27.48165 Y24.11503
G1 F300 X27.39280 Y24.05565
G1 F300 X27.32468 Y24.03500
G1 F300 X26.35874 Y24.03002
G1 F300 X26.24805 Y24.05115
G1 F300 X26.18876 Y24.08204
G1 F300 X26.11886 Y24.14828
G1 F300 X26.06385 Y24.26352
G1 F300 X25.71617 Y24.26352
G1 F300 X25.66580 Y24.21315
G1 F300 X25.67347 Y24.00218
G1 F300 X25.69908 Y23.91777
G1 F300 X25.79707 Y23.77119
G1 F300 X25.88955 Y23.68897
G1 F300 X25.92763 Y23.59354
G1 F300 X25.90520 Y23.48465
G1 F300 X25.78178 Y23.33187
G1 F300 X25.71764 Y23.21186
G1 F300 X25.67815 Y23.08166
G1 F300 X25.66392 Y22.93708
G1 F300 X25.66392 Y22.46799
G1 F300 X25.67815 Y22.32342
G1 F300 X25.71762 Y22.19322
G1 F300 X25.84502 Y21.99007
G1 F300 X25.86697 Y21.90251
G1 F300 X25.86583 Y20.81834
G1 F300 X25.85275 Y20.75847
G1 F300 X25.81424 Y20.69995
G1 F300 X25.71648 Y20.64664
G1 F300 X19.57656 Y20.64664
G1 F300 X19.48517 Y20.69385
G1 F300 X19.42967 Y20.79340
G1 F300 X19.42606 Y21.28067
G1 F300 X19.41169 Y21.42664
G1 F300 X19.37186 Y21.55796
G1 F300 X19.30717 Y21.67899
G1 F300 X19.22004 Y21.78514
G1 F300 X19.11392 Y21.87221
G1 F300 X18.99294 Y21.93688
G1 F300 X18.86157 Y21.97673
G1 F300 X18.71578 Y21.99108
G1 F300 X17.13417 Y21.99108
G1 F300 X16.98838 Y21.97673
G1 F300 X16.85701 Y21.93688
G1 F300 X16.73600 Y21.87221
G1 F300 X16.62988 Y21.78511
G1 F300 X16.54281 Y21.67902
G1 F300 X16.47809 Y21.55796
G1 F300 X16.43826 Y21.42659
G1 F300 X16.42389 Y21.28067
G1 F300 X16.41891 Y20.82499
G1 F300 X16.37146 Y20.73729
G1 F300 X16.27415 Y20.68382
G1 F300 X10.00218 Y20.65370
G1 F300 X9.90520 Y20.70318
G1 F300 X9.85161 Y20.80112
G1 F300 X9.84798 Y22.44109
G1 F300 X9.82702 Y22.65384
G1 F300 X9.70358 Y23.02375
G1 F300 X9.69149 Y23.30784
G1 F300 X9.62428 Y23.47010
G1 F300 X9.56827 Y23.53835
G1 F300 X9.50007 Y23.59431
G1 F300 X9.29609 Y23.68844
G1 F300 X9.25009 Y23.74307
G1 F300 X9.22791 Y23.81097
G1 F300 X9.23282 Y23.88221
G1 F300 X9.26375 Y23.94599
G1 F300 X9.35832 Y24.03586
G1 F300 X9.51069 Y24.24015
G1 F300 X9.64021 Y24.53385
G1 F300 X9.60739 Y24.59601
G1 F300 X9.24988 Y24.59601
G1 F300 X9.13962 Y24.38038
G1 F300 X9.00401 Y24.22979
G1 F300 X8.84940 Y24.11907
G1 F300 X8.68705 Y24.04681
G1 F300 X8.48882 Y24.00467
G1 F300 X8.31115 Y24.00467
G1 F300 X8.12484 Y24.04292
G1 F300 X7.93973 Y24.12534
G1 F300 X7.79109 Y24.23375
G1 F300 X7.66774 Y24.37025
G1 F300 X7.55009 Y24.59601
G1 F300 X7.19256 Y24.59601
G1 F300 X7.15974 Y24.53385
G1 F300 X7.28923 Y24.24015
G1 F300 X7.44158 Y24.03588
G1 F300 X7.53620 Y23.94599
G1 F300 X7.56713 Y23.88221
G1 F300 X7.57204 Y23.81097
G1 F300 X7.54986 Y23.74307
G1 F300 X7.50386 Y23.68844
G1 F300 X7.29988 Y23.59431
G1 F300 X7.23168 Y23.53835
G1 F300 X7.13406 Y23.39230
G1 F300 X7.10846 Y23.30784
G1 F300 X7.09637 Y23.02369
G1 F300 X6.97293 Y22.65384
G1 F300 X6.95197 Y22.44107
G1 F300 X6.94951 Y20.81969
G1 F300 X6.93196 Y20.76233
G1 F300 X6.89660 Y20.71186
G1 F300 X6.84582 Y20.67696
G1 F300 X6.76330 Y20.65771
G1 F300 X4.94169 Y20.67513
G1 F300 X4.85523 Y20.70292
G1 F300 X4.80654 Y20.74844
G1 F300 X4.76912 Y20.84923
G1 F300 X4.76798 Y22.44120
G1 F300 X4.74702 Y22.65387
G1 F300 X4.62358 Y23.02375
G1 F300 X4.61149 Y23.30784
G1 F300 X4.58589 Y23.39230
G1 F300 X4.48827 Y23.53835
G1 F300 X4.42007 Y23.59431
G1 F300 X4.21609 Y23.68844
G1 F300 X4.17009 Y23.74307
G1 F300 X4.14791 Y23.81097
G1 F300 X4.15282 Y23.88221
G1 F300 X4.18375 Y23.94599
G1 F300 X4.27834 Y24.03586
G1 F300 X4.43072 Y24.24018
G1 F300 X4.56021 Y24.53385
G1 F300 X4.52739 Y24.59601
G1 F300 X4.16988 Y24.59601
G1 F300 X4.05962 Y24.38038
G1 F300 X3.92401 Y24.22979
G1 F300 X3.76940 Y24.11907
G1 F300 X3.60705 Y24.04681
G1 F300 X3.40882 Y24.00467
G1 F300 X3.23115 Y24.00467
G1 F300 X3.04484 Y24.04292
G1 F300 X2.85973 Y24.12534
G1 F300 X2.71109 Y24.23375
G1 F300 X2.58774 Y24.37025
G1 F300 X2.47009 Y24.59601
G1 F300 X2.11256 Y24.59601
G1 F300 X2.07974 Y24.53385
G1 F300 X2.20926 Y24.24015
G1 F300 X2.36163 Y24.03586
G1 F300 X2.45620 Y23.94599
G1 F300 X2.48713 Y23.88221
G1 F300 X2.49204 Y23.81097
G1 F300 X2.46986 Y23.74307
G1 F300 X2.42386 Y23.68844
G1 F300 X2.21988 Y23.59433
G1 F300 X2.09569 Y23.47015
G1 F300 X2.05406 Y23.39230
G1 F300 X2.02846 Y23.30784
G1 F300 X2.01637 Y23.02369
G1 F300 X1.89293 Y22.65384
G1 F300 X1.87197 Y22.44120
G1 F300 X1.86494 Y19.28527
G1 F300 X1.89293 Y19.00120
G1 F300 X1.97576 Y18.72817
G1 F300 X2.11017 Y18.47669
G1 F300 X2.29300 Y18.25390
G1 F300 X2.54952 Y18.03445
G1 F300 X2.80011 Y17.89863
G1 F300 X3.07654 Y17.81342
G1 F300 X3.36526 Y17.78500
G1 F300 X8.40000 Y17.73999
G1 F300 X16.26973 Y17.78106
G1 F300 X16.36668 Y17.73160
G1 F300 X16.42025 Y17.63379
G1 F300 X16.43826 Y17.05342
G1 F300 X16.47809 Y16.92211
G1 F300 X16.54278 Y16.80105
G1 F300 X16.62988 Y16.69495
G1 F300 X16.73600 Y16.60783
G1 F300 X16.85706 Y16.54314
G1 F300 X16.98838 Y16.50331
G1 F300 X17.13417 Y16.48896
G1 F300 X18.71578 Y16.48896
G1 F300 X18.86157 Y16.50331
G1 F300 X18.99289 Y16.54314
G1 F300 X19.11395 Y16.60783
G1 F300 X19.22004 Y16.69493
G1 F300 X19.30717 Y16.80108
G1 F300 X19.37186 Y16.92208
G1 F300 X19.41169 Y17.05342
G1 F300 X19.42606 Y17.19940
G1 F300 X19.42967 Y17.59668
G1 F300 X19.48296 Y17.69427
G1 F300 X19.54148 Y17.73277
G1 F300 X19.61306 Y17.74702
G1 F300 X30.25998 Y17.74702
G1 F300 X30.32879 Y17.73384
G1 F300 X30.41545 Y17.66391
G1 F300 X30.44697 Y17.56000
G1 F300 X30.43994 Y9.03528
G1 F300 X30.46793 Y8.75118
G1 F300 X30.55073 Y8.47821
G1 F300 X30.68517 Y8.22664
G1 F300 X30.86612 Y8.00620
G1 F300 X31.08664 Y7.82522
G1 F300 X31.33816 Y7.69081
G1 F300 X31.61113 Y7.60798
G1 F300 X31.89525 Y7.57999
G1 F300 X45.30927 Y7.58702
G1 F300 X45.37752 Y7.57389
G1 F300 X45.44910 Y7.52385
G1 F300 X45.49304 Y7.43343
G1 F300 X45.48814 Y7.34623
G1 F300 X45.43437 Y7.26132
G1 F300 X45.23998 Y7.17079
G1 F300 X44.92716 Y7.15154
G1 F300 X44.76488 Y7.08431
G1 F300 X44.64067 Y6.96012
G1 F300 X44.57346 Y6.79784
G1 F300 X44.56137 Y6.51369
G1 F300 X44.43793 Y6.14387
G1 F300 X44.41697 Y5.93117
G1 F300 X44.41697 Y3.79183
G1 F300 X44.39945 Y3.71332
G1 F300 X44.36394 Y3.66168
G1 F300 X44.30239 Y3.61967
G1 F300 X44.19208 Y3.60892
G1 F300 X44.12360 Y3.63829
G1 F300 X43.96584 Y3.75487
G1 F300 X43.74065 Y3.86130
G1 F300 X43.69508 Y3.87514
G1 F300 X43.63899 Y3.84431
G1 F300 X43.63899 Y3.48180
G1 F300 X43.76025 Y3.42638
G1 F300 X43.89556 Y3.32808
G1 F300 X44.02416 Y3.18525
G1 F300 X44.11065 Y3.03481
G1 F300 X44.16457 Y2.86989
G1 F300 X44.18499 Y2.68500
G1 F300 X44.16457 Y2.50014
G1 F300 X44.11065 Y2.33522
G1 F300 X44.02416 Y2.18477
G1 F300 X43.89556 Y2.04195
G1 F300 X43.76025 Y1.94365
G1 F300 X43.63899 Y1.88823
G1 F300 X43.63899 Y1.52572
G1 F300 X43.69505 Y1.49491
G1 F300 X43.96582 Y1.61515
G1 F300 X44.16244 Y1.76092
G1 F300 X44.35967 Y1.97332
G1 F300 X44.42350 Y2.00420
G1 F300 X44.49449 Y2.00908
G1 F300 X44.56216 Y1.98708
G1 F300 X44.61608 Y1.94218
G1 F300 X44.83615 Y1.65617
G1 F300 X45.05659 Y1.47525
G1 F300 X45.30813 Y1.34081
G1 F300 X45.58113 Y1.25798
G1 F300 X45.86500 Y1.23001
G1 F300 X46.14882 Y1.25798
G1 F300 X46.42179 Y1.34078
G1 F300 X46.67338 Y1.47527
G1 F300 X46.89380 Y1.65617
G1 F300 X47.07478 Y1.87670
G1 F300 X47.20919 Y2.12821
G1 F300 X47.29202 Y2.40118
G1 F300 X47.31298 Y2.61393
G1 F300 X47.31298 Y4.48985
G1 F300 X47.35146 Y4.60313
G1 F300 X47.43299 Y4.66422
G1 F300 X47.54651 Y4.67077
G1 F300 X47.84790 Y4.51586
G1 F300 X48.12108 Y4.43298
G1 F300 X48.33380 Y4.41202
G1 F300 X50.30975 Y4.40499
G1 F300 X50.59382 Y4.43298
G1 F300 X50.86677 Y4.51578
G1 F300 X51.11836 Y4.65025
G1 F300 X51.33880 Y4.83117
G1 F300 X51.51978 Y5.05167
G1 F300 X51.65419 Y5.30318
G1 F300 X51.73702 Y5.57621
G1 F300 X51.76501 Y5.86028
G1 F300 X51.75828 Y7.40589
G1 F300 X51.78950 Y7.50391
G1 F300 X51.87616 Y7.57384
G1 F300 X51.94500 Y7.58702
G1 F300 X63.64477 Y7.57999
G1 F300 X63.92882 Y7.60798
G1 F300 X64.20182 Y7.69081
G1 F300 X64.45333 Y7.82522
G1 F300 X64.67380 Y8.00617
G1 F300 X64.85478 Y8.22667
G1 F300 X64.98922 Y8.47821
G1 F300 X65.07202 Y8.75116
G1 F300 X65.10001 Y9.03525
G1 F300 X65.09298 Y19.26615
G1 F300 X65.07202 Y19.47884
G1 F300 X64.94858 Y19.84875
G1 F300 X64.93649 Y20.13284
G1 F300 X64.91089 Y20.21730
G1 F300 X64.81327 Y20.36335
G1 F300 X64.74507 Y20.41931
G1 F300 X64.54068 Y20.51857
G1 F300 X64.50134 Y20.56950
G1 F300 X64.48030 Y20.64300
G1 F300 X64.51162 Y20.76109
G1 F300 X64.65300 Y20.90729
G1 F300 X64.79524 Y21.12017
G1 F300 X64.89308 Y21.35644
G1 F300 X64.94297 Y21.60714
G1 F300 X64.94297 Y21.86291
G1 F300 X64.89308 Y22.11361
G1 F300 X64.79524 Y22.34988
G1 F300 X64.62341 Y22.59791
G1 F300 X64.59542 Y22.67536
G1 F300 X64.59298 Y27.13159
G1 F300 X64.57926 Y27.27083
G1 F300 X64.50197 Y27.50075
G1 F300 X64.46087 Y27.70728
G1 F300 X64.35724 Y27.86867
G1 F300 X64.33837 Y27.96689
G1 F300 X64.37835 Y28.06780
G1 F300 X64.47045 Y28.13042
G1 F300 X64.78117 Y28.15076
G1 F300 X64.89051 Y28.18190
G1 F300 X65.08279 Y28.19351
G1 F300 X65.16725 Y28.21911
G1 F300 X65.31327 Y28.31670
G1 F300 X65.41088 Y28.46277
G1 F300 X65.46638 Y28.61213
G1 F300 X65.70702 Y28.87580
G1 F300 X65.79506 Y29.04047
G1 F300 X65.84926 Y29.21921
G1 F300 X65.86760 Y29.40537
G1 F300 X65.86321 Y32.28672
G1 F300 X65.88698 Y32.37321
G1 F300 X66.01185 Y32.57206
G1 F300 X66.05170 Y32.70341
G1 F300 X66.06605 Y32.84918
G1 F300 X66.06605 Y33.48087
G1 F300 X66.05170 Y33.62664
G1 F300 X66.01182 Y33.75799
G1 F300 X65.94713 Y33.87904
G1 F300 X65.85973 Y33.98555
G1 F300 X65.75406 Y34.08118
G1 F300 X65.72620 Y34.13574
G1 F300 X65.71883 Y34.20543
G1 F300 X65.76024 Y34.30820
G1 F300 X65.85970 Y34.39449
G1 F300 X65.94713 Y34.50101
G1 F300 X66.01185 Y34.62210
G1 F300 X66.05170 Y34.75341
G1 F300 X66.06605 Y34.89918
G1 F300 X66.06605 Y35.53086
G1 F300 X66.05170 Y35.67663
G1 F300 X66.01182 Y35.80800
G1 F300 X65.88492 Y36.01092
G1 F300 X65.86298 Y36.09847
G1 F300 X65.86298 Y39.98663
G1 F300 X65.87723 Y40.05820
G1 F300 X65.94136 Y40.13862
G1 F300 X66.01934 Y40.17090
G1 F300 X66.11030 Y40.16283
G1 F300 X66.18221 Y40.11886
G1 F300 X68.19719 Y38.10385
G1 F300 X68.23773 Y38.04320
G1 F300 X68.25198 Y37.97162
G1 F300 X68.25198 Y5.49841
G1 F300 X68.23773 Y5.42685
G1 F300 X68.19719 Y5.36620
G1 F300 X65.78980 Y2.94908
G1 F300 X65.71883 Y2.77776
G1 F300 X65.70941 Y2.68205
G1 F300 X65.71167 Y0.79915
G1 F300 X65.68045 Y0.70113
G1 F300 X65.63128 Y0.65125
G1 F300 X65.52498 Y0.61802
G1 F300 X0.80499 Y0.61802
G1 F300 X0.69199 Y0.65701
G1 F300 X0.64396 Y0.71152
G1 F300 X0.61797 Y0.80502
;G04 P0 ; dwell for no time -- G64 should not smooth over this point 
G1 F3000 Z3.00000 ; retract 

G1 F3000 X2.25998 Y19.28502 ; rapid move to begin. 
G1 F300 F300.00000
G1 F300 Z-0.07000
;G04 P0 ; dwell for no time -- G64 should not smooth over this point 
G1 F300 F600.00000
G1 F300 X2.25998 Y19.28502
G1 F300 X2.25998 Y22.37000
G1 F300 X2.28477 Y22.59647
G1 F300 X2.35163 Y22.80116
G1 F300 X2.40999 Y22.90289
G1 F300 X2.41114 Y23.23172
G1 F300 X2.42757 Y23.26243
G1 F300 X2.45828 Y23.27886
G1 F300 X2.77845 Y23.28003
G1 F300 X2.98657 Y23.37589
G1 F300 X3.20918 Y23.42420
G1 F300 X3.43699 Y23.42321
G1 F300 X3.65340 Y23.37589
G1 F300 X3.86153 Y23.28003
G1 F300 X4.18170 Y23.27886
G1 F300 X4.22541 Y23.24297
G1 F300 X4.22998 Y22.90289
G1 F300 X4.28835 Y22.80116
G1 F300 X4.35520 Y22.59647
G1 F300 X4.37999 Y22.37000
G1 F300 X4.37999 Y20.29098
G1 F300 X7.33998 Y20.26452
G1 F300 X7.33998 Y22.37000
G1 F300 X7.36477 Y22.59647
G1 F300 X7.43163 Y22.80116
G1 F300 X7.48999 Y22.90289
G1 F300 X7.49114 Y23.23172
G1 F300 X7.50757 Y23.26243
G1 F300 X7.53828 Y23.27886
G1 F300 X7.85845 Y23.28003
G1 F300 X8.06657 Y23.37589
G1 F300 X8.28918 Y23.42420
G1 F300 X8.51699 Y23.42321
G1 F300 X8.73340 Y23.37589
G1 F300 X8.94153 Y23.28003
G1 F300 X9.26170 Y23.27886
G1 F300 X9.30541 Y23.24297
G1 F300 X9.30998 Y22.90289
G1 F300 X9.36835 Y22.80116
G1 F300 X9.43520 Y22.59647
G1 F300 X9.45999 Y22.37000
G1 F300 X9.45999 Y20.26005
G1 F300 X16.81505 Y20.29479
G1 F300 X16.81665 Y21.32189
G1 F300 X16.86419 Y21.45720
G1 F300 X16.95398 Y21.54856
G1 F300 X17.03501 Y21.58666
G1 F300 X17.12498 Y21.60002
G1 F300 X18.72500 Y21.60002
G1 F300 X18.83808 Y21.57841
G1 F300 X18.92165 Y21.52964
G1 F300 X18.98578 Y21.45720
G1 F300 X19.02759 Y21.35621
G1 F300 X19.03498 Y20.25502
G1 F300 X26.25498 Y20.25502
G1 F300 X26.25498 Y22.17424
G1 F300 X26.14396 Y22.24399
G1 F300 X26.09085 Y22.31557
G1 F300 X26.06113 Y22.39807
G1 F300 X26.05498 Y22.94628
G1 F300 X26.06806 Y23.03444
G1 F300 X26.10619 Y23.11501
G1 F300 X26.16603 Y23.18107
G1 F300 X26.24251 Y23.22689
G1 F300 X26.32742 Y23.24838
G1 F300 X26.86725 Y23.25979
G1 F300 X27.30972 Y23.24704
G1 F300 X27.43494 Y23.20185
G1 F300 X27.50603 Y23.13896
G1 F300 X27.55386 Y23.05697
G1 F300 X27.57499 Y22.94628
G1 F300 X27.56773 Y22.39380
G1 F300 X27.50695 Y22.26721
G1 F300 X27.45919 Y22.22044
G1 F300 X27.37499 Y22.17424
G1 F300 X27.37499 Y20.25502
G1 F300 X31.89500 Y20.25502
G1 F300 X32.10750 Y20.23322
G1 F300 X32.29508 Y20.17630
G1 F300 X32.43091 Y20.10501
G1 F300 X32.75670 Y20.10386
G1 F300 X32.80041 Y20.06797
G1 F300 X32.80498 Y19.73094
G1 F300 X32.87628 Y19.59510
G1 F300 X32.93320 Y19.40752
G1 F300 X32.95499 Y19.19503
G1 F300 X32.95499 Y10.09502
G1 F300 X37.18498 Y10.09502
G1 F300 X37.18531 Y19.20127
G1 F300 X37.20977 Y19.42147
G1 F300 X37.27663 Y19.62616
G1 F300 X37.33499 Y19.72789
G1 F300 X37.33499 Y20.04501
G1 F300 X37.35257 Y20.08743
G1 F300 X37.39499 Y20.10501
G1 F300 X37.70345 Y20.10501
G1 F300 X37.91157 Y20.20089
G1 F300 X38.14045 Y20.24953
G1 F300 X38.35579 Y20.24920
G1 F300 X38.56649 Y20.20475
G1 F300 X38.78653 Y20.10501
G1 F300 X39.12831 Y20.09490
G1 F300 X39.15498 Y20.04501
G1 F300 X39.15498 Y19.72789
G1 F300 X39.21335 Y19.62616
G1 F300 X39.28282 Y19.40920
G1 F300 X39.30499 Y19.19503
G1 F300 X39.30499 Y10.09502
G1 F300 X43.52091 Y10.09502
G1 F300 X43.53498 Y10.10909
G1 F300 X43.53498 Y19.19500
G1 F300 X43.55716 Y19.40920
G1 F300 X43.62663 Y19.62616
G1 F300 X43.68499 Y19.72789
G1 F300 X43.68499 Y20.04501
G1 F300 X43.71166 Y20.09490
G1 F300 X44.05345 Y20.10501
G1 F300 X44.27349 Y20.20475
G1 F300 X44.48418 Y20.24920
G1 F300 X44.71199 Y20.24821
G1 F300 X44.92840 Y20.20089
G1 F300 X45.13653 Y20.10501
G1 F300 X45.44499 Y20.10501
G1 F300 X45.48740 Y20.08743
G1 F300 X45.50498 Y20.04501
G1 F300 X45.50498 Y19.72789
G1 F300 X45.56335 Y19.62616
G1 F300 X45.63020 Y19.42147
G1 F300 X45.65466 Y19.20127
G1 F300 X45.65499 Y10.09502
G1 F300 X49.88498 Y10.09502
G1 F300 X49.88498 Y19.19500
G1 F300 X49.90716 Y19.40920
G1 F300 X49.97662 Y19.62616
G1 F300 X50.03499 Y19.72789
G1 F300 X50.03499 Y20.04501
G1 F300 X50.06166 Y20.09490
G1 F300 X50.40345 Y20.10501
G1 F300 X50.62349 Y20.20475
G1 F300 X50.83418 Y20.24920
G1 F300 X51.06199 Y20.24821
G1 F300 X51.27840 Y20.20089
G1 F300 X51.48653 Y20.10501
G1 F300 X51.79499 Y20.10501
G1 F300 X51.83740 Y20.08743
G1 F300 X51.85498 Y20.04501
G1 F300 X51.85498 Y19.72789
G1 F300 X51.91335 Y19.62616
G1 F300 X51.98020 Y19.42147
G1 F300 X52.00466 Y19.20127
G1 F300 X52.00499 Y10.09502
G1 F300 X56.23498 Y10.09502
G1 F300 X56.23498 Y19.19500
G1 F300 X56.25716 Y19.40920
G1 F300 X56.32662 Y19.62616
G1 F300 X56.38499 Y19.72789
G1 F300 X56.38499 Y20.04501
G1 F300 X56.41166 Y20.09490
G1 F300 X56.75345 Y20.10501
G1 F300 X56.97349 Y20.20475
G1 F300 X57.18418 Y20.24920
G1 F300 X57.40579 Y20.24920
G1 F300 X57.62840 Y20.20089
G1 F300 X57.83653 Y20.10501
G1 F300 X58.14499 Y20.10501
G1 F300 X58.18740 Y20.08743
G1 F300 X58.20498 Y20.04501
G1 F300 X58.20498 Y19.72789
G1 F300 X58.26335 Y19.62616
G1 F300 X58.33020 Y19.42147
G1 F300 X58.35466 Y19.20127
G1 F300 X58.35499 Y10.09502
G1 F300 X62.58498 Y10.09502
G1 F300 X62.58498 Y19.19500
G1 F300 X62.60716 Y19.40920
G1 F300 X62.67663 Y19.62616
G1 F300 X62.73499 Y19.72789
G1 F300 X62.73499 Y20.04501
G1 F300 X62.76166 Y20.09490
G1 F300 X63.10345 Y20.10501
G1 F300 X63.32349 Y20.20475
G1 F300 X63.53418 Y20.24920
G1 F300 X63.76199 Y20.24821
G1 F300 X63.97840 Y20.20089
G1 F300 X64.18653 Y20.10501
G1 F300 X64.49499 Y20.10501
G1 F300 X64.53740 Y20.08743
G1 F300 X64.55498 Y20.04501
G1 F300 X64.55498 Y19.72789
G1 F300 X64.61335 Y19.62616
G1 F300 X64.68020 Y19.42147
G1 F300 X64.70466 Y19.20127
G1 F300 X64.70499 Y9.03500
G1 F300 X64.68549 Y8.83404
G1 F300 X64.62628 Y8.63492
G1 F300 X64.52938 Y8.45116
G1 F300 X64.39016 Y8.28153
G1 F300 X64.23862 Y8.15715
G1 F300 X64.05595 Y8.05822
G1 F300 X63.85750 Y7.99680
G1 F300 X63.65087 Y7.97531
G1 F300 X51.38404 Y7.97501
G1 F300 X51.36999 Y7.96094
G1 F300 X51.36999 Y5.86000
G1 F300 X51.35049 Y5.65904
G1 F300 X51.29128 Y5.45992
G1 F300 X51.19438 Y5.27616
G1 F300 X51.05516 Y5.10653
G1 F300 X50.90362 Y4.98215
G1 F300 X50.72095 Y4.88322
G1 F300 X50.51096 Y4.81951
G1 F300 X50.31000 Y4.80001
G1 F300 X48.40500 Y4.80001
G1 F300 X48.18460 Y4.82317
G1 F300 X47.97384 Y4.89165
G1 F300 X47.77706 Y5.00641
G1 F300 X47.61724 Y5.15073
G1 F300 X47.48415 Y5.33562
G1 F300 X47.39525 Y5.53851
G1 F300 X47.35080 Y5.74921
G1 F300 X47.35080 Y5.97082
G1 F300 X47.39911 Y6.19343
G1 F300 X47.49042 Y6.39528
G1 F300 X47.61724 Y6.56929
G1 F300 X47.78720 Y6.72098
G1 F300 X47.97384 Y6.82837
G1 F300 X48.18460 Y6.89685
G1 F300 X48.39873 Y6.91969
G1 F300 X49.24998 Y6.92002
G1 F300 X49.24998 Y7.97501
G1 F300 X31.89497 Y7.97501
G1 F300 X31.69401 Y7.99451
G1 F300 X31.49490 Y8.05372
G1 F300 X31.30135 Y8.15715
G1 F300 X31.14981 Y8.28153
G1 F300 X31.01713 Y8.44138
G1 F300 X30.91819 Y8.62405
G1 F300 X30.85678 Y8.82250
G1 F300 X30.83498 Y9.03500
G1 F300 X30.83498 Y18.13501
G1 F300 X19.03493 Y18.13501
G1 F300 X19.03333 Y17.15812
G1 F300 X18.98578 Y17.02284
G1 F300 X18.89599 Y16.93145
G1 F300 X18.81497 Y16.89335
G1 F300 X18.72500 Y16.88002
G1 F300 X17.12498 Y16.88002
G1 F300 X17.01190 Y16.90163
G1 F300 X16.92833 Y16.95038
G1 F300 X16.86419 Y17.02284
G1 F300 X16.82239 Y17.12383
G1 F300 X16.81499 Y18.17476
G1 F300 X8.39050 Y18.13506
G1 F300 X3.34969 Y18.18040
G1 F300 X3.14550 Y18.20326
G1 F300 X2.94957 Y18.26511
G1 F300 X2.76925 Y18.36358
G1 F300 X2.57024 Y18.53572
G1 F300 X2.44200 Y18.69157
G1 F300 X2.34314 Y18.87420
G1 F300 X2.28178 Y19.07260
G1 F300 X2.25998 Y19.28502
;G04 P0 ; dwell for no time -- G64 should not smooth over this point 
G1 F3000 Z3.00000 ; retract 

G1 F3000 X2.07974 Y25.28620 ; rapid move to begin. 
G1 F300 F300.00000
G1 F300 Z-0.07000
;G04 P0 ; dwell for no time -- G64 should not smooth over this point 
G1 F300 F600.00000
G1 F300 X2.07974 Y25.28620
G1 F300 X2.11256 Y25.22402
G1 F300 X2.47009 Y25.22402
G1 F300 X2.58035 Y25.43964
G1 F300 X2.71109 Y25.58627
G1 F300 X2.86524 Y25.69824
G1 F300 X3.00598 Y25.75963
G1 F300 X3.00598 Y26.11780
G1 F300 X2.94858 Y26.14795
G1 F300 X2.76859 Y26.08409
G1 F300 X2.55013 Y25.95399
G1 F300 X2.36128 Y25.78373
G1 F300 X2.20926 Y25.57990
G1 F300 X2.07974 Y25.28620
;G04 P0 ; dwell for no time -- G64 should not smooth over this point 
G1 F3000 Z3.00000 ; retract 

G1 F3000 X3.63399 Y25.75963 ; rapid move to begin. 
G1 F300 F300.00000
G1 F300 Z-0.07000
;G04 P0 ; dwell for no time -- G64 should not smooth over this point 
G1 F300 F600.00000
G1 F300 X3.63399 Y25.75963
G1 F300 X3.63399 Y26.11780
G1 F300 X3.69140 Y26.14795
G1 F300 X3.87136 Y26.08409
G1 F300 X4.08980 Y25.95399
G1 F300 X4.27867 Y25.78373
G1 F300 X4.43072 Y25.57987
G1 F300 X4.56021 Y25.28620
G1 F300 X4.52739 Y25.22402
G1 F300 X4.16988 Y25.22402
G1 F300 X4.05962 Y25.43964
G1 F300 X3.92889 Y25.58627
G1 F300 X3.77474 Y25.69824
G1 F300 X3.63399 Y25.75963
;G04 P0 ; dwell for no time -- G64 should not smooth over this point 
G1 F3000 Z3.00000 ; retract 

G1 F3000 X7.15974 Y25.28620 ; rapid move to begin. 
G1 F300 F300.00000
G1 F300 Z-0.07000
;G04 P0 ; dwell for no time -- G64 should not smooth over this point 
G1 F300 F600.00000
G1 F300 X7.15974 Y25.28620
G1 F300 X7.19256 Y25.22402
G1 F300 X7.55009 Y25.22402
G1 F300 X7.66035 Y25.43964
G1 F300 X7.79109 Y25.58627
G1 F300 X7.94524 Y25.69824
G1 F300 X8.08598 Y25.75963
G1 F300 X8.08598 Y26.11780
G1 F300 X8.02858 Y26.14795
G1 F300 X7.84859 Y26.08409
G1 F300 X7.63013 Y25.95399
G1 F300 X7.44128 Y25.78373
G1 F300 X7.28923 Y25.57987
G1 F300 X7.15974 Y25.28620
;G04 P0 ; dwell for no time -- G64 should not smooth over this point 
G1 F3000 Z3.00000 ; retract 

G1 F3000 X8.71399 Y25.75963 ; rapid move to begin. 
G1 F300 F300.00000
G1 F300 Z-0.07000
;G04 P0 ; dwell for no time -- G64 should not smooth over this point 
G1 F300 F600.00000
G1 F300 X8.71399 Y25.75963
G1 F300 X8.71399 Y26.11780
G1 F300 X8.77140 Y26.14795
G1 F300 X8.95136 Y26.08409
G1 F300 X9.16982 Y25.95399
G1 F300 X9.35867 Y25.78373
G1 F300 X9.51069 Y25.57990
G1 F300 X9.64021 Y25.28620
G1 F300 X9.60739 Y25.22402
G1 F300 X9.24988 Y25.22402
G1 F300 X9.13962 Y25.43964
G1 F300 X9.00889 Y25.58627
G1 F300 X8.85474 Y25.69824
G1 F300 X8.71399 Y25.75963
;G04 P0 ; dwell for no time -- G64 should not smooth over this point 
G1 F3000 Z3.00000 ; retract 

G1 F3000 X16.42391 Y25.74914 ; rapid move to begin. 
G1 F300 F300.00000
G1 F300 Z-0.07000
;G04 P0 ; dwell for no time -- G64 should not smooth over this point 
G1 F300 F600.00000
G1 F300 X16.42391 Y25.74914
G1 F300 X16.42686 Y27.67669
G1 F300 X16.47618 Y27.72602
G1 F300 X16.81499 Y27.72602
G1 F300 X16.81499 Y25.99001
G1 F300 X16.82833 Y25.90002
G1 F300 X16.90684 Y25.76979
G1 F300 X16.97885 Y25.71663
G1 F300 X17.06308 Y25.68627
G1 F300 X17.61098 Y25.68000
G1 F300 X17.61098 Y25.34124
G1 F300 X17.56148 Y25.29171
G1 F300 X16.88380 Y25.28899
G1 F300 X16.70273 Y25.32412
G1 F300 X16.62488 Y25.36573
G1 F300 X16.50067 Y25.48993
G1 F300 X16.43346 Y25.65224
G1 F300 X16.42391 Y25.74914
;G04 P0 ; dwell for no time -- G64 should not smooth over this point 
G1 F3000 Z3.00000 ; retract 

G1 F3000 X18.23899 Y25.34124 ; rapid move to begin. 
G1 F300 F300.00000
G1 F300 Z-0.07000
;G04 P0 ; dwell for no time -- G64 should not smooth over this point 
G1 F300 F600.00000
G1 F300 X18.23899 Y25.34124
G1 F300 X18.23899 Y25.68000
G1 F300 X18.78690 Y25.68627
G1 F300 X18.87857 Y25.72135
G1 F300 X18.98710 Y25.82547
G1 F300 X19.02164 Y25.90002
G1 F300 X19.03498 Y25.99001
G1 F300 X19.03498 Y27.72602
G1 F300 X19.37377 Y27.72602
G1 F300 X19.42309 Y27.67669
G1 F300 X19.42604 Y25.74906
G1 F300 X19.39088 Y25.56776
G1 F300 X19.29330 Y25.42171
G1 F300 X19.22510 Y25.36573
G1 F300 X19.06282 Y25.29849
G1 F300 X18.28850 Y25.29171
G1 F300 X18.23899 Y25.34124
;G04 P0 ; dwell for no time -- G64 should not smooth over this point 
G1 F3000 Z3.00000 ; retract 

G1 F3000 X16.42391 Y30.33092 ; rapid move to begin. 
G1 F300 F300.00000
G1 F300 Z-0.07000
;G04 P0 ; dwell for no time -- G64 should not smooth over this point 
G1 F300 F600.00000
G1 F300 X16.42391 Y30.33092
G1 F300 X16.42686 Y28.40336
G1 F300 X16.47618 Y28.35404
G1 F300 X16.81499 Y28.35404
G1 F300 X16.81499 Y30.09003
G1 F300 X16.82833 Y30.17999
G1 F300 X16.90684 Y30.31024
G1 F300 X16.97885 Y30.36341
G1 F300 X17.06308 Y30.39376
G1 F300 X17.61098 Y30.40001
G1 F300 X17.61098 Y30.73882
G1 F300 X17.56148 Y30.78835
G1 F300 X16.88375 Y30.79107
G1 F300 X16.70270 Y30.75594
G1 F300 X16.55668 Y30.65835
G1 F300 X16.50067 Y30.59010
G1 F300 X16.43346 Y30.42787
G1 F300 X16.42391 Y30.33092
;G04 P0 ; dwell for no time -- G64 should not smooth over this point 
G1 F3000 Z3.00000 ; retract 

G1 F3000 X18.23899 Y30.40001 ; rapid move to begin. 
G1 F300 F300.00000
G1 F300 Z-0.07000
;G04 P0 ; dwell for no time -- G64 should not smooth over this point 
G1 F300 F600.00000
G1 F300 X18.23899 Y30.40001
G1 F300 X18.23899 Y30.73882
G1 F300 X18.28850 Y30.78835
G1 F300 X19.06279 Y30.78154
G1 F300 X19.22507 Y30.71431
G1 F300 X19.34925 Y30.59013
G1 F300 X19.41649 Y30.42785
G1 F300 X19.42604 Y30.33099
G1 F300 X19.42309 Y28.40336
G1 F300 X19.37377 Y28.35404
G1 F300 X19.03498 Y28.35404
G1 F300 X19.03498 Y30.09003
G1 F300 X19.02164 Y30.17999
G1 F300 X18.98354 Y30.26102
G1 F300 X18.87857 Y30.35868
G1 F300 X18.78690 Y30.39376
G1 F300 X18.23899 Y30.40001
;G04 P0 ; dwell for no time -- G64 should not smooth over this point 
G1 F3000 Z3.00000 ; retract 

G1 F3000 X24.63499 Y37.82501 ; rapid move to begin. 
G1 F300 F300.00000
G1 F300 Z-0.07000
;G04 P0 ; dwell for no time -- G64 should not smooth over this point 
G1 F300 F600.00000
G1 F300 X24.63499 Y37.82501
G1 F300 X24.65257 Y37.78259
G1 F300 X24.69499 Y37.76502
G1 F300 X26.39499 Y37.76502
G1 F300 X26.42831 Y37.77513
G1 F300 X26.45384 Y37.81330
G1 F300 X26.45498 Y38.11503
G1 F300 X28.51500 Y38.11503
G1 F300 X28.61840 Y38.12493
G1 F300 X28.72373 Y38.15567
G1 F300 X28.83082 Y38.21292
G1 F300 X31.02096 Y40.38904
G1 F300 X31.08710 Y40.46915
G1 F300 X31.13983 Y40.56539
G1 F300 X31.17280 Y40.67004
G1 F300 X31.18499 Y40.78500
G1 F300 X31.18499 Y42.76501
G1 F300 X36.97497 Y42.76501
G1 F300 X37.07840 Y42.77491
G1 F300 X37.18374 Y42.80565
G1 F300 X37.29085 Y42.86290
G1 F300 X42.20095 Y47.75905
G1 F300 X42.27362 Y47.84897
G1 F300 X42.35279 Y48.04005
G1 F300 X42.36498 Y48.15501
G1 F300 X42.36498 Y50.29428
G1 F300 X42.49678 Y50.43464
G1 F300 X42.59064 Y50.59522
G1 F300 X42.64619 Y50.76621
G1 F300 X42.66465 Y50.93875
G1 F300 X42.64619 Y51.12382
G1 F300 X42.59290 Y51.28894
G1 F300 X42.49678 Y51.45539
G1 F300 X42.38045 Y51.58411
G1 F300 X42.22940 Y51.69265
G1 F300 X42.07075 Y51.76293
G1 F300 X41.90108 Y51.79933
G1 F300 X41.72137 Y51.80062
G1 F300 X41.53923 Y51.76293
G1 F300 X41.38058 Y51.69265
G1 F300 X41.22953 Y51.58411
G1 F300 X41.11319 Y51.45539
G1 F300 X41.01708 Y51.28894
G1 F300 X40.96379 Y51.12382
G1 F300 X40.94499 Y50.94500
G1 F300 X40.96379 Y50.76621
G1 F300 X41.01934 Y50.59522
G1 F300 X41.11319 Y50.43464
G1 F300 X41.24497 Y50.29428
G1 F300 X41.24497 Y48.38699
G1 F300 X36.74302 Y43.88502
G1 F300 X30.62500 Y43.88502
G1 F300 X30.51001 Y43.87283
G1 F300 X30.40537 Y43.83986
G1 F300 X30.23338 Y43.72495
G1 F300 X30.16287 Y43.64085
G1 F300 X30.10562 Y43.53376
G1 F300 X30.07489 Y43.42843
G1 F300 X30.06498 Y41.01698
G1 F300 X28.28302 Y39.23504
G1 F300 X26.45498 Y39.23504
G1 F300 X26.45384 Y39.53672
G1 F300 X26.43740 Y39.56745
G1 F300 X26.39499 Y39.58500
G1 F300 X24.66166 Y39.57489
G1 F300 X24.63499 Y39.52501
G1 F300 X24.63499 Y37.82501
;G04 P0 ; dwell for no time -- G64 should not smooth over this point 
G1 F3000 Z3.00000 ; retract 

G1 F3000 X23.31899 Y37.46763 ; rapid move to begin. 
G1 F300 F300.00000
G1 F300 Z-0.07000
;G04 P0 ; dwell for no time -- G64 should not smooth over this point 
G1 F300 F600.00000
G1 F300 X23.31899 Y37.46763
G1 F300 X23.38115 Y37.43482
G1 F300 X23.67485 Y37.56428
G1 F300 X23.87914 Y37.71668
G1 F300 X23.96903 Y37.81127
G1 F300 X24.07106 Y37.84818
G1 F300 X24.16677 Y37.82745
G1 F300 X24.22656 Y37.77891
G1 F300 X24.32067 Y37.57495
G1 F300 X24.37670 Y37.50670
G1 F300 X24.52270 Y37.40911
G1 F300 X24.60713 Y37.38351
G1 F300 X26.38574 Y37.37396
G1 F300 X26.48282 Y37.38351
G1 F300 X26.64507 Y37.45072
G1 F300 X26.71325 Y37.50670
G1 F300 X26.83740 Y37.67881
G1 F300 X26.92915 Y37.72402
G1 F300 X28.51469 Y37.72239
G1 F300 X28.70082 Y37.74073
G1 F300 X28.87951 Y37.79494
G1 F300 X29.04421 Y37.88300
G1 F300 X29.18881 Y38.00167
G1 F300 X31.29830 Y40.11116
G1 F300 X31.41705 Y40.25582
G1 F300 X31.50506 Y40.42051
G1 F300 X31.55926 Y40.59920
G1 F300 X31.57760 Y40.78530
G1 F300 X31.57328 Y42.19589
G1 F300 X31.60450 Y42.29391
G1 F300 X31.69117 Y42.36384
G1 F300 X31.76000 Y42.37702
G1 F300 X36.97464 Y42.37240
G1 F300 X37.16083 Y42.39074
G1 F300 X37.33954 Y42.44497
G1 F300 X37.50416 Y42.53295
G1 F300 X37.64881 Y42.65167
G1 F300 X42.47834 Y47.48118
G1 F300 X42.59701 Y47.62578
G1 F300 X42.68505 Y47.79050
G1 F300 X42.73925 Y47.96919
G1 F300 X42.75759 Y48.15537
G1 F300 X42.75657 Y50.09725
G1 F300 X42.78449 Y50.16461
G1 F300 X42.91095 Y50.35389
G1 F300 X43.00501 Y50.58099
G1 F300 X43.05297 Y50.82211
G1 F300 X43.05297 Y51.06794
G1 F300 X43.00501 Y51.30906
G1 F300 X42.91093 Y51.53616
G1 F300 X42.77435 Y51.74058
G1 F300 X42.60052 Y51.91442
G1 F300 X42.39612 Y52.05099
G1 F300 X42.16902 Y52.14505
G1 F300 X41.92787 Y52.19303
G1 F300 X41.68208 Y52.19303
G1 F300 X41.44093 Y52.14505
G1 F300 X41.21383 Y52.05099
G1 F300 X41.00943 Y51.91442
G1 F300 X40.83539 Y51.74038
G1 F300 X40.66702 Y51.49486
G1 F300 X40.60654 Y51.45450
G1 F300 X40.52328 Y51.44142
G1 F300 X40.46341 Y51.45450
G1 F300 X40.40293 Y51.49486
G1 F300 X40.23453 Y51.74040
G1 F300 X40.06052 Y51.91442
G1 F300 X39.85612 Y52.05099
G1 F300 X39.62902 Y52.14505
G1 F300 X39.38787 Y52.19303
G1 F300 X39.14208 Y52.19303
G1 F300 X38.90093 Y52.14505
G1 F300 X38.67383 Y52.05099
G1 F300 X38.46943 Y51.91442
G1 F300 X38.29542 Y51.74040
G1 F300 X38.12702 Y51.49486
G1 F300 X38.06654 Y51.45450
G1 F300 X37.99499 Y51.44025
G1 F300 X37.92341 Y51.45450
G1 F300 X37.86293 Y51.49486
G1 F300 X37.69453 Y51.74040
G1 F300 X37.52052 Y51.91442
G1 F300 X37.31612 Y52.05099
G1 F300 X37.08902 Y52.14505
G1 F300 X36.84787 Y52.19303
G1 F300 X36.60205 Y52.19303
G1 F300 X36.36093 Y52.14505
G1 F300 X36.13383 Y52.05099
G1 F300 X35.92943 Y51.91442
G1 F300 X35.75542 Y51.74040
G1 F300 X35.58702 Y51.49486
G1 F300 X35.52654 Y51.45450
G1 F300 X35.45499 Y51.44025
G1 F300 X35.38341 Y51.45450
G1 F300 X35.32293 Y51.49486
G1 F300 X35.15453 Y51.74040
G1 F300 X34.98054 Y51.91442
G1 F300 X34.77612 Y52.05099
G1 F300 X34.54902 Y52.14505
G1 F300 X34.30787 Y52.19303
G1 F300 X34.06208 Y52.19303
G1 F300 X33.82093 Y52.14505
G1 F300 X33.59380 Y52.05099
G1 F300 X33.38941 Y51.91442
G1 F300 X33.21542 Y51.74040
G1 F300 X33.04702 Y51.49486
G1 F300 X32.98654 Y51.45450
G1 F300 X32.91499 Y51.44025
G1 F300 X32.84341 Y51.45450
G1 F300 X32.78293 Y51.49486
G1 F300 X32.61453 Y51.74040
G1 F300 X32.44052 Y51.91442
G1 F300 X32.23612 Y52.05099
G1 F300 X32.00902 Y52.14505
G1 F300 X31.76790 Y52.19303
G1 F300 X31.52208 Y52.19303
G1 F300 X31.28093 Y52.14505
G1 F300 X31.05383 Y52.05099
G1 F300 X30.84943 Y51.91442
G1 F300 X30.67542 Y51.74040
G1 F300 X30.50702 Y51.49486
G1 F300 X30.44654 Y51.45450
G1 F300 X30.37499 Y51.44025
G1 F300 X30.30341 Y51.45450
G1 F300 X30.24293 Y51.49486
G1 F300 X30.07453 Y51.74040
G1 F300 X29.90052 Y51.91442
G1 F300 X29.69612 Y52.05099
G1 F300 X29.46902 Y52.14505
G1 F300 X29.22787 Y52.19303
G1 F300 X28.98208 Y52.19303
G1 F300 X28.74093 Y52.14505
G1 F300 X28.51383 Y52.05099
G1 F300 X28.30943 Y51.91442
G1 F300 X28.13577 Y51.74076
G1 F300 X27.95538 Y51.47670
G1 F300 X27.90281 Y51.44259
G1 F300 X27.82991 Y51.42735
G1 F300 X27.75683 Y51.44182
G1 F300 X27.69521 Y51.48368
G1 F300 X27.56669 Y51.68792
G1 F300 X27.40222 Y51.86931
G1 F300 X27.20583 Y52.01487
G1 F300 X26.93507 Y52.13514
G1 F300 X26.87898 Y52.10431
G1 F300 X26.87898 Y51.74180
G1 F300 X27.00024 Y51.68638
G1 F300 X27.13555 Y51.58808
G1 F300 X27.26417 Y51.44525
G1 F300 X27.35064 Y51.29481
G1 F300 X27.40456 Y51.12989
G1 F300 X27.42498 Y50.94500
G1 F300 X27.40456 Y50.76014
G1 F300 X27.35064 Y50.59522
G1 F300 X27.26417 Y50.44477
G1 F300 X27.13555 Y50.30195
G1 F300 X27.00024 Y50.20365
G1 F300 X26.87898 Y50.14823
G1 F300 X26.87898 Y49.78574
G1 F300 X26.93507 Y49.75491
G1 F300 X27.20583 Y49.87518
G1 F300 X27.40225 Y50.02077
G1 F300 X27.56666 Y50.20213
G1 F300 X27.69521 Y50.40637
G1 F300 X27.75683 Y50.44823
G1 F300 X27.82991 Y50.46270
G1 F300 X27.90281 Y50.44746
G1 F300 X27.95538 Y50.41335
G1 F300 X28.13577 Y50.14929
G1 F300 X28.30943 Y49.97563
G1 F300 X28.51383 Y49.83906
G1 F300 X28.74095 Y49.74500
G1 F300 X28.98205 Y49.69702
G1 F300 X29.22790 Y49.69702
G1 F300 X29.46900 Y49.74500
G1 F300 X29.69612 Y49.83906
G1 F300 X29.90052 Y49.97563
G1 F300 X30.07453 Y50.14965
G1 F300 X30.24293 Y50.39519
G1 F300 X30.30341 Y50.43555
G1 F300 X30.37499 Y50.44980
G1 F300 X30.44654 Y50.43555
G1 F300 X30.50702 Y50.39519
G1 F300 X30.67542 Y50.14965
G1 F300 X30.84943 Y49.97563
G1 F300 X31.05383 Y49.83906
G1 F300 X31.28096 Y49.74500
G1 F300 X31.52205 Y49.69702
G1 F300 X31.76790 Y49.69702
G1 F300 X32.00900 Y49.74500
G1 F300 X32.23612 Y49.83906
G1 F300 X32.44052 Y49.97563
G1 F300 X32.61453 Y50.14965
G1 F300 X32.78293 Y50.39519
G1 F300 X32.84341 Y50.43555
G1 F300 X32.91499 Y50.44980
G1 F300 X32.98654 Y50.43555
G1 F300 X33.04702 Y50.39519
G1 F300 X33.21542 Y50.14965
G1 F300 X33.38941 Y49.97566
G1 F300 X33.59383 Y49.83906
G1 F300 X33.82096 Y49.74500
G1 F300 X34.06205 Y49.69702
G1 F300 X34.30790 Y49.69702
G1 F300 X34.54900 Y49.74500
G1 F300 X34.77612 Y49.83906
G1 F300 X34.98054 Y49.97566
G1 F300 X35.15453 Y50.14965
G1 F300 X35.32293 Y50.39519
G1 F300 X35.38341 Y50.43555
G1 F300 X35.45499 Y50.44980
G1 F300 X35.52654 Y50.43555
G1 F300 X35.58702 Y50.39519
G1 F300 X35.75542 Y50.14965
G1 F300 X35.92943 Y49.97563
G1 F300 X36.13383 Y49.83906
G1 F300 X36.36095 Y49.74500
G1 F300 X36.60205 Y49.69702
G1 F300 X36.84790 Y49.69702
G1 F300 X37.08900 Y49.74500
G1 F300 X37.31612 Y49.83906
G1 F300 X37.52052 Y49.97563
G1 F300 X37.69453 Y50.14965
G1 F300 X37.86710 Y50.39898
G1 F300 X37.95849 Y50.44619
G1 F300 X38.02857 Y50.44670
G1 F300 X38.12702 Y50.39522
G1 F300 X38.30022 Y50.13761
G1 F300 X38.31698 Y50.05996
G1 F300 X38.31330 Y49.85829
G1 F300 X38.26220 Y49.76293
G1 F300 X36.00205 Y47.50282
G1 F300 X35.90632 Y47.45164
G1 F300 X25.54533 Y47.45265
G1 F300 X25.35912 Y47.43429
G1 F300 X25.18046 Y47.38011
G1 F300 X25.01574 Y47.29207
G1 F300 X24.87142 Y47.17361
G1 F300 X24.75290 Y47.02923
G1 F300 X24.66492 Y46.86459
G1 F300 X24.61069 Y46.68585
G1 F300 X24.59235 Y46.49967
G1 F300 X24.59697 Y46.01270
G1 F300 X24.58587 Y45.94940
G1 F300 X24.52676 Y45.86668
G1 F300 X24.37665 Y45.76332
G1 F300 X24.32067 Y45.69512
G1 F300 X24.24594 Y45.52045
G1 F300 X24.20363 Y45.46741
G1 F300 X24.10688 Y45.42340
G1 F300 X23.99916 Y45.44041
G1 F300 X23.87866 Y45.55375
G1 F300 X23.67485 Y45.70577
G1 F300 X23.38115 Y45.83526
G1 F300 X23.31899 Y45.80244
G1 F300 X23.31899 Y45.44463
G1 F300 X23.45974 Y45.38324
G1 F300 X23.60901 Y45.27524
G1 F300 X23.74462 Y45.12464
G1 F300 X23.83347 Y44.97074
G1 F300 X23.89347 Y44.79028
G1 F300 X23.91498 Y44.59500
G1 F300 X23.89347 Y44.39975
G1 F300 X23.83347 Y44.21928
G1 F300 X23.74462 Y44.06538
G1 F300 X23.60901 Y43.91479
G1 F300 X23.45974 Y43.80679
G1 F300 X23.31899 Y43.74540
G1 F300 X23.31899 Y43.38761
G1 F300 X23.38115 Y43.35479
G1 F300 X23.67485 Y43.48428
G1 F300 X23.87912 Y43.63666
G1 F300 X23.96672 Y43.72949
G1 F300 X24.07393 Y43.76818
G1 F300 X24.17193 Y43.74491
G1 F300 X24.22656 Y43.69891
G1 F300 X24.32067 Y43.49495
G1 F300 X24.37668 Y43.42670
G1 F300 X24.44488 Y43.37072
G1 F300 X24.60716 Y43.30351
G1 F300 X26.38574 Y43.29396
G1 F300 X26.48282 Y43.30351
G1 F300 X26.64507 Y43.37072
G1 F300 X26.76928 Y43.49493
G1 F300 X26.83649 Y43.65721
G1 F300 X26.84634 Y45.37089
G1 F300 X26.88503 Y45.47801
G1 F300 X26.92915 Y45.52050
G1 F300 X26.99656 Y45.54841
G1 F300 X36.33964 Y45.54740
G1 F300 X36.52580 Y45.56574
G1 F300 X36.70449 Y45.61994
G1 F300 X36.86918 Y45.70798
G1 F300 X37.01381 Y45.82667
G1 F300 X39.93834 Y48.75118
G1 F300 X40.05704 Y48.89580
G1 F300 X40.14505 Y49.06047
G1 F300 X40.19925 Y49.23919
G1 F300 X40.21759 Y49.42537
G1 F300 X40.21660 Y50.09733
G1 F300 X40.24449 Y50.16464
G1 F300 X40.37949 Y50.36669
G1 F300 X40.43108 Y50.41828
G1 F300 X40.49849 Y50.44619
G1 F300 X40.57718 Y50.44477
G1 F300 X40.66702 Y50.39522
G1 F300 X40.82516 Y50.16507
G1 F300 X40.85338 Y50.09722
G1 F300 X40.85338 Y48.58867
G1 F300 X40.80220 Y48.49293
G1 F300 X36.63705 Y44.32782
G1 F300 X36.57640 Y44.28728
G1 F300 X36.50485 Y44.27303
G1 F300 X30.62533 Y44.27765
G1 F300 X30.43915 Y44.25931
G1 F300 X30.26046 Y44.20511
G1 F300 X30.09577 Y44.11710
G1 F300 X29.95142 Y43.99861
G1 F300 X29.83293 Y43.85423
G1 F300 X29.74489 Y43.68954
G1 F300 X29.69069 Y43.51085
G1 F300 X29.67235 Y43.32467
G1 F300 X29.67700 Y41.25518
G1 F300 X29.66275 Y41.18360
G1 F300 X29.62221 Y41.12295
G1 F300 X28.17708 Y39.67781
G1 F300 X28.11642 Y39.63728
G1 F300 X28.04474 Y39.62303
G1 F300 X26.93181 Y39.62564
G1 F300 X26.83938 Y39.66943
G1 F300 X26.71330 Y39.84332
G1 F300 X26.64510 Y39.89930
G1 F300 X26.48279 Y39.96654
G1 F300 X24.70416 Y39.97609
G1 F300 X24.60716 Y39.96654
G1 F300 X24.44488 Y39.89933
G1 F300 X24.32067 Y39.77512
G1 F300 X24.22273 Y39.56687
G1 F300 X24.13906 Y39.51081
G1 F300 X24.07106 Y39.50189
G1 F300 X23.96903 Y39.53880
G1 F300 X23.87914 Y39.63339
G1 F300 X23.67485 Y39.78576
G1 F300 X23.38115 Y39.91525
G1 F300 X23.31899 Y39.88244
G1 F300 X23.31899 Y39.52463
G1 F300 X23.45974 Y39.46323
G1 F300 X23.60901 Y39.35523
G1 F300 X23.74462 Y39.20464
G1 F300 X23.83347 Y39.05074
G1 F300 X23.89347 Y38.87027
G1 F300 X23.91498 Y38.67502
G1 F300 X23.89347 Y38.47975
G1 F300 X23.83347 Y38.29928
G1 F300 X23.74462 Y38.14541
G1 F300 X23.60901 Y37.99481
G1 F300 X23.45974 Y37.88678
G1 F300 X23.31899 Y37.82539
G1 F300 X23.31899 Y37.46763
;G04 P0 ; dwell for no time -- G64 should not smooth over this point 
G1 F3000 Z3.00000 ; retract 

G1 F3000 X21.76705 Y38.30362 ; rapid move to begin. 
G1 F300 F300.00000
G1 F300 Z-0.07000
;G04 P0 ; dwell for no time -- G64 should not smooth over this point 
G1 F300 F600.00000
G1 F300 X21.76705 Y38.30362
G1 F300 X21.79720 Y38.36103
G1 F300 X22.15507 Y38.36103
G1 F300 X22.26535 Y38.14541
G1 F300 X22.39609 Y37.99875
G1 F300 X22.55024 Y37.88678
G1 F300 X22.69098 Y37.82539
G1 F300 X22.69098 Y37.46763
G1 F300 X22.62880 Y37.43482
G1 F300 X22.56860 Y37.45308
G1 F300 X22.33513 Y37.56428
G1 F300 X22.13129 Y37.71632
G1 F300 X21.96103 Y37.90520
G1 F300 X21.83088 Y38.12366
G1 F300 X21.76705 Y38.30362
;G04 P0 ; dwell for no time -- G64 should not smooth over this point 
G1 F3000 Z3.00000 ; retract 

G1 F3000 X21.76705 Y39.04645 ; rapid move to begin. 
G1 F300 F300.00000
G1 F300 Z-0.07000
;G04 P0 ; dwell for no time -- G64 should not smooth over this point 
G1 F300 F600.00000
G1 F300 X21.76705 Y39.04645
G1 F300 X21.79720 Y38.98904
G1 F300 X22.15509 Y38.98904
G1 F300 X22.26535 Y39.20464
G1 F300 X22.39609 Y39.35127
G1 F300 X22.55024 Y39.46323
G1 F300 X22.69098 Y39.52465
G1 F300 X22.69098 Y39.88244
G1 F300 X22.62880 Y39.91525
G1 F300 X22.56863 Y39.89699
G1 F300 X22.33510 Y39.78576
G1 F300 X22.13127 Y39.63372
G1 F300 X21.96103 Y39.44487
G1 F300 X21.83091 Y39.22641
G1 F300 X21.76705 Y39.04645
;G04 P0 ; dwell for no time -- G64 should not smooth over this point 
G1 F3000 Z3.00000 ; retract 

G1 F3000 X24.63499 Y43.74501 ; rapid move to begin. 
G1 F300 F300.00000
G1 F300 Z-0.07000
;G04 P0 ; dwell for no time -- G64 should not smooth over this point 
G1 F300 F600.00000
G1 F300 X24.63499 Y43.74501
G1 F300 X24.63614 Y45.45672
G1 F300 X24.65257 Y45.48743
G1 F300 X24.68328 Y45.50386
G1 F300 X24.98498 Y45.50501
G1 F300 X24.98498 Y46.50000
G1 F300 X24.99717 Y46.61499
G1 F300 X25.07634 Y46.80607
G1 F300 X25.14505 Y46.89162
G1 F300 X25.22915 Y46.96213
G1 F300 X25.32537 Y47.01486
G1 F300 X25.43001 Y47.04783
G1 F300 X25.54500 Y47.06002
G1 F300 X36.10802 Y47.06002
G1 F300 X38.70497 Y49.65699
G1 F300 X38.70497 Y50.29428
G1 F300 X38.57319 Y50.43464
G1 F300 X38.47934 Y50.59522
G1 F300 X38.42379 Y50.76621
G1 F300 X38.40499 Y50.94500
G1 F300 X38.42379 Y51.12382
G1 F300 X38.47934 Y51.29481
G1 F300 X38.56580 Y51.44525
G1 F300 X38.68511 Y51.57967
G1 F300 X38.82971 Y51.68638
G1 F300 X38.99923 Y51.76293
G1 F300 X39.18137 Y51.80062
G1 F300 X39.36108 Y51.79933
G1 F300 X39.53075 Y51.76293
G1 F300 X39.68940 Y51.69265
G1 F300 X39.83555 Y51.58808
G1 F300 X39.95678 Y51.45539
G1 F300 X40.05064 Y51.29481
G1 F300 X40.10718 Y51.11762
G1 F300 X40.12498 Y50.94500
G1 F300 X40.10718 Y50.77241
G1 F300 X40.05064 Y50.59522
G1 F300 X39.96417 Y50.44477
G1 F300 X39.82498 Y50.29428
G1 F300 X39.82468 Y49.41915
G1 F300 X39.81279 Y49.31005
G1 F300 X39.73362 Y49.11897
G1 F300 X39.66095 Y49.02905
G1 F300 X36.73596 Y46.10404
G1 F300 X36.65585 Y46.03790
G1 F300 X36.55961 Y45.98517
G1 F300 X36.45496 Y45.95220
G1 F300 X36.33997 Y45.94001
G1 F300 X26.10499 Y45.94001
G1 F300 X26.10499 Y45.50501
G1 F300 X26.40670 Y45.50386
G1 F300 X26.43740 Y45.48743
G1 F300 X26.45384 Y45.45672
G1 F300 X26.44487 Y43.71169
G1 F300 X26.39499 Y43.68502
G1 F300 X24.69499 Y43.68502
G1 F300 X24.65257 Y43.70260
G1 F300 X24.63499 Y43.74501
;G04 P0 ; dwell for no time -- G64 should not smooth over this point 
G1 F3000 Z3.00000 ; retract 

G1 F3000 X21.76705 Y44.22360 ; rapid move to begin. 
G1 F300 F300.00000
G1 F300 Z-0.07000
;G04 P0 ; dwell for no time -- G64 should not smooth over this point 
G1 F300 F600.00000
G1 F300 X21.76705 Y44.22360
G1 F300 X21.79720 Y44.28101
G1 F300 X22.15507 Y44.28101
G1 F300 X22.26535 Y44.06538
G1 F300 X22.39609 Y43.91875
G1 F300 X22.55024 Y43.80679
G1 F300 X22.69098 Y43.74540
G1 F300 X22.69098 Y43.38761
G1 F300 X22.62880 Y43.35479
G1 F300 X22.56863 Y43.37306
G1 F300 X22.33510 Y43.48428
G1 F300 X22.13127 Y43.63633
G1 F300 X21.96103 Y43.82518
G1 F300 X21.83091 Y44.04364
G1 F300 X21.76705 Y44.22360
;G04 P0 ; dwell for no time -- G64 should not smooth over this point 
G1 F3000 Z3.00000 ; retract 

G1 F3000 X21.76705 Y44.96645 ; rapid move to begin. 
G1 F300 F300.00000
G1 F300 Z-0.07000
;G04 P0 ; dwell for no time -- G64 should not smooth over this point 
G1 F300 F600.00000
G1 F300 X21.76705 Y44.96645
G1 F300 X21.79720 Y44.90902
G1 F300 X22.15507 Y44.90902
G1 F300 X22.26535 Y45.12464
G1 F300 X22.39609 Y45.27127
G1 F300 X22.55024 Y45.38324
G1 F300 X22.69098 Y45.44463
G1 F300 X22.69098 Y45.80244
G1 F300 X22.62880 Y45.83526
G1 F300 X22.56858 Y45.81699
G1 F300 X22.33513 Y45.70577
G1 F300 X22.13127 Y45.55372
G1 F300 X21.96103 Y45.36487
G1 F300 X21.83091 Y45.14638
G1 F300 X21.76705 Y44.96645
;G04 P0 ; dwell for no time -- G64 should not smooth over this point 
G1 F3000 Z3.00000 ; retract 

G1 F3000 X17.69698 Y50.82211 ; rapid move to begin. 
G1 F300 F300.00000
G1 F300 Z-0.07000
;G04 P0 ; dwell for no time -- G64 should not smooth over this point 
G1 F300 F600.00000
G1 F300 X17.69698 Y50.82211
G1 F300 X17.69698 Y51.06794
G1 F300 X17.74494 Y51.30906
G1 F300 X17.83902 Y51.53616
G1 F300 X17.97560 Y51.74058
G1 F300 X18.14943 Y51.91442
G1 F300 X18.35380 Y52.05099
G1 F300 X18.58093 Y52.14505
G1 F300 X18.82205 Y52.19303
G1 F300 X19.06790 Y52.19303
G1 F300 X19.30902 Y52.14505
G1 F300 X19.53612 Y52.05099
G1 F300 X19.74052 Y51.91442
G1 F300 X19.91453 Y51.74040
G1 F300 X20.08293 Y51.49486
G1 F300 X20.14341 Y51.45450
G1 F300 X20.21499 Y51.44025
G1 F300 X20.28654 Y51.45450
G1 F300 X20.34702 Y51.49486
G1 F300 X20.51542 Y51.74043
G1 F300 X20.68946 Y51.91444
G1 F300 X20.89380 Y52.05099
G1 F300 X21.12096 Y52.14505
G1 F300 X21.36205 Y52.19303
G1 F300 X21.60790 Y52.19303
G1 F300 X21.84902 Y52.14505
G1 F300 X22.07612 Y52.05099
G1 F300 X22.28054 Y51.91442
G1 F300 X22.45453 Y51.74040
G1 F300 X22.62293 Y51.49486
G1 F300 X22.68341 Y51.45450
G1 F300 X22.75499 Y51.44025
G1 F300 X22.82654 Y51.45450
G1 F300 X22.88702 Y51.49486
G1 F300 X23.05539 Y51.74040
G1 F300 X23.22943 Y51.91442
G1 F300 X23.43383 Y52.05099
G1 F300 X23.66093 Y52.14505
G1 F300 X23.90205 Y52.19303
G1 F300 X24.14790 Y52.19303
G1 F300 X24.38902 Y52.14505
G1 F300 X24.61615 Y52.05099
G1 F300 X24.82052 Y51.91442
G1 F300 X24.99418 Y51.74076
G1 F300 X25.17457 Y51.47670
G1 F300 X25.22714 Y51.44259
G1 F300 X25.30007 Y51.42735
G1 F300 X25.37314 Y51.44182
G1 F300 X25.43474 Y51.48371
G1 F300 X25.56326 Y51.68795
G1 F300 X25.72770 Y51.86928
G1 F300 X25.92412 Y52.01487
G1 F300 X26.19488 Y52.13514
G1 F300 X26.25097 Y52.10431
G1 F300 X26.25097 Y51.74180
G1 F300 X26.12971 Y51.68638
G1 F300 X25.99443 Y51.58808
G1 F300 X25.86580 Y51.44525
G1 F300 X25.77934 Y51.29481
G1 F300 X25.72542 Y51.12989
G1 F300 X25.70499 Y50.94500
G1 F300 X25.72542 Y50.76014
G1 F300 X25.77934 Y50.59522
G1 F300 X25.86580 Y50.44477
G1 F300 X25.99443 Y50.30195
G1 F300 X26.12971 Y50.20365
G1 F300 X26.25097 Y50.14823
G1 F300 X26.25097 Y49.78574
G1 F300 X26.19488 Y49.75491
G1 F300 X25.92412 Y49.87518
G1 F300 X25.72770 Y50.02077
G1 F300 X25.56326 Y50.20210
G1 F300 X25.44078 Y50.40009
G1 F300 X25.33733 Y50.45915
G1 F300 X25.23835 Y50.45186
G1 F300 X25.17457 Y50.41335
G1 F300 X24.99418 Y50.14927
G1 F300 X24.82052 Y49.97563
G1 F300 X24.61615 Y49.83906
G1 F300 X24.38900 Y49.74500
G1 F300 X24.14790 Y49.69702
G1 F300 X23.90205 Y49.69702
G1 F300 X23.66095 Y49.74500
G1 F300 X23.43383 Y49.83906
G1 F300 X23.22943 Y49.97563
G1 F300 X23.05542 Y50.14962
G1 F300 X22.88702 Y50.39519
G1 F300 X22.82100 Y50.43753
G1 F300 X22.73020 Y50.44736
G1 F300 X22.62088 Y50.39308
G1 F300 X22.45453 Y50.14965
G1 F300 X22.28052 Y49.97563
G1 F300 X22.07612 Y49.83906
G1 F300 X21.84900 Y49.74500
G1 F300 X21.60790 Y49.69702
G1 F300 X21.36205 Y49.69702
G1 F300 X21.12093 Y49.74500
G1 F300 X20.89380 Y49.83906
G1 F300 X20.68943 Y49.97561
G1 F300 X20.51542 Y50.14962
G1 F300 X20.34702 Y50.39519
G1 F300 X20.28654 Y50.43555
G1 F300 X20.21499 Y50.44980
G1 F300 X20.14341 Y50.43555
G1 F300 X20.08293 Y50.39519
G1 F300 X19.91456 Y50.14965
G1 F300 X19.74052 Y49.97563
G1 F300 X19.53612 Y49.83906
G1 F300 X19.30900 Y49.74500
G1 F300 X19.06790 Y49.69702
G1 F300 X18.82205 Y49.69702
G1 F300 X18.58096 Y49.74500
G1 F300 X18.35380 Y49.83906
G1 F300 X18.14943 Y49.97563
G1 F300 X17.97560 Y50.14947
G1 F300 X17.83902 Y50.35389
G1 F300 X17.74494 Y50.58099
G1 F300 X17.69698 Y50.82211
;G04 P0 ; dwell for no time -- G64 should not smooth over this point 
G1 F3000 Z3.00000 ; retract 

G1 F3000 X18.08499 Y50.94500 ; rapid move to begin. 
G1 F300 F300.00000
G1 F300 Z-0.07000
;G04 P0 ; dwell for no time -- G64 should not smooth over this point 
G1 F300 F600.00000
G1 F300 X18.08499 Y50.94500
G1 F300 X18.10379 Y50.76621
G1 F300 X18.15934 Y50.59522
G1 F300 X18.24580 Y50.44477
G1 F300 X18.36511 Y50.31036
G1 F300 X18.52058 Y50.19738
G1 F300 X18.67923 Y50.12709
G1 F300 X18.86137 Y50.08940
G1 F300 X19.04108 Y50.09070
G1 F300 X19.21075 Y50.12709
G1 F300 X19.36940 Y50.19738
G1 F300 X19.52045 Y50.30591
G1 F300 X19.64417 Y50.44477
G1 F300 X19.73064 Y50.59522
G1 F300 X19.78618 Y50.76621
G1 F300 X19.80498 Y50.94500
G1 F300 X19.78618 Y51.12382
G1 F300 X19.73064 Y51.29481
G1 F300 X19.64417 Y51.44525
G1 F300 X19.52487 Y51.57967
G1 F300 X19.36940 Y51.69265
G1 F300 X19.21075 Y51.76293
G1 F300 X19.02860 Y51.80062
G1 F300 X18.84890 Y51.79933
G1 F300 X18.67923 Y51.76293
G1 F300 X18.50971 Y51.68638
G1 F300 X18.36953 Y51.58411
G1 F300 X18.24580 Y51.44525
G1 F300 X18.15934 Y51.29481
G1 F300 X18.10379 Y51.12382
G1 F300 X18.08499 Y50.94500
;G04 P0 ; dwell for no time -- G64 should not smooth over this point 
G1 F3000 Z3.00000 ; retract 

G1 F3000 X20.62499 Y50.94500 ; rapid move to begin. 
G1 F300 F300.00000
G1 F300 Z-0.07000
;G04 P0 ; dwell for no time -- G64 should not smooth over this point 
G1 F300 F600.00000
G1 F300 X20.62499 Y50.94500
G1 F300 X20.64379 Y50.76621
G1 F300 X20.69934 Y50.59522
G1 F300 X20.78580 Y50.44477
G1 F300 X20.90511 Y50.31036
G1 F300 X21.06058 Y50.19738
G1 F300 X21.21923 Y50.12709
G1 F300 X21.40137 Y50.08940
G1 F300 X21.58108 Y50.09070
G1 F300 X21.75075 Y50.12709
G1 F300 X21.90940 Y50.19738
G1 F300 X22.06045 Y50.30591
G1 F300 X22.18417 Y50.44477
G1 F300 X22.27064 Y50.59522
G1 F300 X22.32618 Y50.76621
G1 F300 X22.34498 Y50.94500
G1 F300 X22.32618 Y51.12382
G1 F300 X22.27064 Y51.29481
G1 F300 X22.18417 Y51.44525
G1 F300 X22.06487 Y51.57967
G1 F300 X21.90940 Y51.69265
G1 F300 X21.75075 Y51.76293
G1 F300 X21.56860 Y51.80062
G1 F300 X21.38890 Y51.79933
G1 F300 X21.21923 Y51.76293
G1 F300 X21.04971 Y51.68638
G1 F300 X20.90953 Y51.58411
G1 F300 X20.78580 Y51.44525
G1 F300 X20.69934 Y51.29481
G1 F300 X20.64379 Y51.12382
G1 F300 X20.62499 Y50.94500
;G04 P0 ; dwell for no time -- G64 should not smooth over this point 
G1 F3000 Z3.00000 ; retract 

G1 F3000 X23.16499 Y50.94500 ; rapid move to begin. 
G1 F300 F300.00000
G1 F300 Z-0.07000
;G04 P0 ; dwell for no time -- G64 should not smooth over this point 
G1 F300 F600.00000
G1 F300 X23.16499 Y50.94500
G1 F300 X23.18379 Y50.76621
G1 F300 X23.23934 Y50.59522
G1 F300 X23.32580 Y50.44477
G1 F300 X23.44511 Y50.31036
G1 F300 X23.60058 Y50.19738
G1 F300 X23.75923 Y50.12709
G1 F300 X23.94137 Y50.08940
G1 F300 X24.12108 Y50.09070
G1 F300 X24.29075 Y50.12709
G1 F300 X24.44940 Y50.19738
G1 F300 X24.60045 Y50.30591
G1 F300 X24.72417 Y50.44477
G1 F300 X24.81064 Y50.59522
G1 F300 X24.86619 Y50.76621
G1 F300 X24.88498 Y50.94500
G1 F300 X24.86619 Y51.12382
G1 F300 X24.81064 Y51.29481
G1 F300 X24.72417 Y51.44525
G1 F300 X24.60487 Y51.57967
G1 F300 X24.44940 Y51.69265
G1 F300 X24.29075 Y51.76293
G1 F300 X24.10860 Y51.80062
G1 F300 X23.92890 Y51.79933
G1 F300 X23.75923 Y51.76293
G1 F300 X23.58971 Y51.68638
G1 F300 X23.44953 Y51.58411
G1 F300 X23.32580 Y51.44525
G1 F300 X23.23934 Y51.29481
G1 F300 X23.18379 Y51.12382
G1 F300 X23.16499 Y50.94500
;G04 P0 ; dwell for no time -- G64 should not smooth over this point 
G1 F3000 Z3.00000 ; retract 

G1 F3000 X28.24499 Y50.94500 ; rapid move to begin. 
G1 F300 F300.00000
G1 F300 Z-0.07000
;G04 P0 ; dwell for no time -- G64 should not smooth over this point 
G1 F300 F600.00000
G1 F300 X28.24499 Y50.94500
G1 F300 X28.26379 Y50.76621
G1 F300 X28.31934 Y50.59522
G1 F300 X28.40580 Y50.44477
G1 F300 X28.52511 Y50.31036
G1 F300 X28.68058 Y50.19738
G1 F300 X28.83923 Y50.12709
G1 F300 X29.02137 Y50.08940
G1 F300 X29.20108 Y50.09070
G1 F300 X29.37075 Y50.12709
G1 F300 X29.52940 Y50.19738
G1 F300 X29.68045 Y50.30591
G1 F300 X29.80417 Y50.44477
G1 F300 X29.89064 Y50.59522
G1 F300 X29.94619 Y50.76621
G1 F300 X29.96498 Y50.94500
G1 F300 X29.94619 Y51.12382
G1 F300 X29.89064 Y51.29481
G1 F300 X29.80417 Y51.44525
G1 F300 X29.68487 Y51.57967
G1 F300 X29.52940 Y51.69265
G1 F300 X29.37075 Y51.76293
G1 F300 X29.18860 Y51.80062
G1 F300 X29.00890 Y51.79933
G1 F300 X28.83923 Y51.76293
G1 F300 X28.66971 Y51.68638
G1 F300 X28.52953 Y51.58411
G1 F300 X28.40580 Y51.44525
G1 F300 X28.31934 Y51.29481
G1 F300 X28.26379 Y51.12382
G1 F300 X28.24499 Y50.94500
;G04 P0 ; dwell for no time -- G64 should not smooth over this point 
G1 F3000 Z3.00000 ; retract 

G1 F3000 X30.78499 Y50.94500 ; rapid move to begin. 
G1 F300 F300.00000
G1 F300 Z-0.07000
;G04 P0 ; dwell for no time -- G64 should not smooth over this point 
G1 F300 F600.00000
G1 F300 X30.78499 Y50.94500
G1 F300 X30.80379 Y50.76621
G1 F300 X30.85934 Y50.59522
G1 F300 X30.94580 Y50.44477
G1 F300 X31.06511 Y50.31036
G1 F300 X31.22058 Y50.19738
G1 F300 X31.37923 Y50.12709
G1 F300 X31.56137 Y50.08940
G1 F300 X31.74108 Y50.09070
G1 F300 X31.91075 Y50.12709
G1 F300 X32.06940 Y50.19738
G1 F300 X32.22045 Y50.30591
G1 F300 X32.34417 Y50.44477
G1 F300 X32.43064 Y50.59522
G1 F300 X32.48618 Y50.76621
G1 F300 X32.50498 Y50.94500
G1 F300 X32.48618 Y51.12382
G1 F300 X32.43064 Y51.29481
G1 F300 X32.34417 Y51.44525
G1 F300 X32.22487 Y51.57967
G1 F300 X32.06940 Y51.69265
G1 F300 X31.91075 Y51.76293
G1 F300 X31.72860 Y51.80062
G1 F300 X31.54890 Y51.79933
G1 F300 X31.37923 Y51.76293
G1 F300 X31.20971 Y51.68638
G1 F300 X31.06953 Y51.58411
G1 F300 X30.94580 Y51.44525
G1 F300 X30.85934 Y51.29481
G1 F300 X30.80379 Y51.12382
G1 F300 X30.78499 Y50.94500
;G04 P0 ; dwell for no time -- G64 should not smooth over this point 
G1 F3000 Z3.00000 ; retract 

G1 F3000 X33.32499 Y50.94500 ; rapid move to begin. 
G1 F300 F300.00000
G1 F300 Z-0.07000
;G04 P0 ; dwell for no time -- G64 should not smooth over this point 
G1 F300 F600.00000
G1 F300 X33.32499 Y50.94500
G1 F300 X33.34379 Y50.76621
G1 F300 X33.39934 Y50.59522
G1 F300 X33.48580 Y50.44477
G1 F300 X33.60511 Y50.31036
G1 F300 X33.76058 Y50.19738
G1 F300 X33.91923 Y50.12709
G1 F300 X34.10137 Y50.08940
G1 F300 X34.28108 Y50.09070
G1 F300 X34.45075 Y50.12709
G1 F300 X34.60940 Y50.19738
G1 F300 X34.76045 Y50.30591
G1 F300 X34.88417 Y50.44477
G1 F300 X34.97064 Y50.59522
G1 F300 X35.02618 Y50.76621
G1 F300 X35.04498 Y50.94500
G1 F300 X35.02618 Y51.12382
G1 F300 X34.97064 Y51.29481
G1 F300 X34.88417 Y51.44525
G1 F300 X34.76487 Y51.57967
G1 F300 X34.60940 Y51.69265
G1 F300 X34.45075 Y51.76293
G1 F300 X34.26860 Y51.80062
G1 F300 X34.08890 Y51.79933
G1 F300 X33.91923 Y51.76293
G1 F300 X33.74971 Y51.68638
G1 F300 X33.60953 Y51.58411
G1 F300 X33.48580 Y51.44525
G1 F300 X33.39934 Y51.29481
G1 F300 X33.34379 Y51.12382
G1 F300 X33.32499 Y50.94500
;G04 P0 ; dwell for no time -- G64 should not smooth over this point 
G1 F3000 Z3.00000 ; retract 

G1 F3000 X35.86499 Y50.94500 ; rapid move to begin. 
G1 F300 F300.00000
G1 F300 Z-0.07000
;G04 P0 ; dwell for no time -- G64 should not smooth over this point 
G1 F300 F600.00000
G1 F300 X35.86499 Y50.94500
G1 F300 X35.88379 Y50.76621
G1 F300 X35.93934 Y50.59522
G1 F300 X36.02580 Y50.44477
G1 F300 X36.14511 Y50.31036
G1 F300 X36.30058 Y50.19738
G1 F300 X36.45923 Y50.12709
G1 F300 X36.64137 Y50.08940
G1 F300 X36.82108 Y50.09070
G1 F300 X36.99075 Y50.12709
G1 F300 X37.14940 Y50.19738
G1 F300 X37.30045 Y50.30591
G1 F300 X37.42417 Y50.44477
G1 F300 X37.51064 Y50.59522
G1 F300 X37.56619 Y50.76621
G1 F300 X37.58498 Y50.94500
G1 F300 X37.56619 Y51.12382
G1 F300 X37.51064 Y51.29481
G1 F300 X37.42417 Y51.44525
G1 F300 X37.30487 Y51.57967
G1 F300 X37.14940 Y51.69265
G1 F300 X36.99075 Y51.76293
G1 F300 X36.80860 Y51.80062
G1 F300 X36.62890 Y51.79933
G1 F300 X36.45923 Y51.76293
G1 F300 X36.28971 Y51.68638
G1 F300 X36.14953 Y51.58411
G1 F300 X36.02580 Y51.44525
G1 F300 X35.93934 Y51.29481
G1 F300 X35.88379 Y51.12382
G1 F300 X35.86499 Y50.94500
;G04 P0 ; dwell for no time -- G64 should not smooth over this point 
G1 F3000 Z3.00000 ; retract 

G1 F3000 X55.16498 Y50.94500 ; rapid move to begin. 
G1 F300 F300.00000
G1 F300 Z-0.07000
;G04 P0 ; dwell for no time -- G64 should not smooth over this point 
G1 F300 F600.00000
G1 F300 X55.16498 Y50.94500
G1 F300 X55.18378 Y51.12382
G1 F300 X55.23709 Y51.28894
G1 F300 X55.33318 Y51.45539
G1 F300 X55.44954 Y51.58411
G1 F300 X55.58972 Y51.68638
G1 F300 X55.75924 Y51.76293
G1 F300 X55.92889 Y51.79933
G1 F300 X56.12109 Y51.79933
G1 F300 X56.29073 Y51.76293
G1 F300 X56.44938 Y51.69265
G1 F300 X56.60488 Y51.57967
G1 F300 X56.72416 Y51.44525
G1 F300 X56.81065 Y51.29481
G1 F300 X56.86719 Y51.11762
G1 F300 X56.88499 Y50.94500
G1 F300 X56.86620 Y50.76621
G1 F300 X56.81065 Y50.59522
G1 F300 X56.72416 Y50.44477
G1 F300 X56.58499 Y50.29428
G1 F300 X56.58499 Y44.82698
G1 F300 X58.96096 Y42.45099
G1 F300 X59.03363 Y42.36107
G1 F300 X59.11280 Y42.16999
G1 F300 X59.12499 Y42.05503
G1 F300 X59.12499 Y36.07434
G1 F300 X59.18842 Y36.04193
G1 F300 X59.25461 Y35.98168
G1 F300 X59.30140 Y35.90365
G1 F300 X59.32200 Y35.82410
G1 F300 X59.32377 Y35.11051
G1 F300 X59.30193 Y35.01775
G1 F300 X59.23815 Y34.92017
G1 F300 X59.18217 Y34.87422
G1 F300 X59.08118 Y34.83241
G1 F300 X58.07590 Y34.82801
G1 F300 X57.99104 Y34.85113
G1 F300 X57.89182 Y34.92017
G1 F300 X57.83109 Y35.01105
G1 F300 X57.80663 Y35.10317
G1 F300 X57.80798 Y35.82410
G1 F300 X57.82858 Y35.90365
G1 F300 X57.87536 Y35.98168
G1 F300 X57.94156 Y36.04193
G1 F300 X58.00498 Y36.07434
G1 F300 X58.00498 Y41.82305
G1 F300 X55.62901 Y44.19904
G1 F300 X55.55634 Y44.28896
G1 F300 X55.47717 Y44.48004
G1 F300 X55.46498 Y44.59500
G1 F300 X55.46498 Y50.29428
G1 F300 X55.33318 Y50.43464
G1 F300 X55.23933 Y50.59522
G1 F300 X55.18378 Y50.76621
G1 F300 X55.16498 Y50.94500
;G04 P0 ; dwell for no time -- G64 should not smooth over this point 
G1 F3000 Z3.00000 ; retract 

G1 F3000 X56.97298 Y50.06070 ; rapid move to begin. 
G1 F300 F300.00000
G1 F300 Z-0.07000
;G04 P0 ; dwell for no time -- G64 should not smooth over this point 
G1 F300 F600.00000
G1 F300 X56.97298 Y50.06070
G1 F300 X57.00450 Y50.16464
G1 F300 X57.13950 Y50.36669
G1 F300 X57.19109 Y50.41828
G1 F300 X57.27021 Y50.44736
G1 F300 X57.36101 Y50.43753
G1 F300 X57.42703 Y50.39522
G1 F300 X57.60999 Y50.10848
G1 F300 X57.61235 Y48.40536
G1 F300 X57.63069 Y48.21920
G1 F300 X57.68489 Y48.04048
G1 F300 X57.77293 Y47.87582
G1 F300 X57.89162 Y47.73119
G1 F300 X63.91221 Y41.71710
G1 F300 X63.96339 Y41.62137
G1 F300 X63.96697 Y36.09852
G1 F300 X63.94297 Y36.00685
G1 F300 X63.81810 Y35.80795
G1 F300 X63.77825 Y35.67663
G1 F300 X63.76392 Y35.53083
G1 F300 X63.76392 Y34.89921
G1 F300 X63.77825 Y34.75344
G1 F300 X63.81810 Y34.62207
G1 F300 X63.88282 Y34.50101
G1 F300 X63.97025 Y34.39449
G1 F300 X64.07589 Y34.29888
G1 F300 X64.10375 Y34.24432
G1 F300 X64.11112 Y34.17462
G1 F300 X64.06971 Y34.07186
G1 F300 X63.97025 Y33.98557
G1 F300 X63.88282 Y33.87902
G1 F300 X63.81810 Y33.75796
G1 F300 X63.77825 Y33.62664
G1 F300 X63.76392 Y33.48085
G1 F300 X63.76392 Y32.84920
G1 F300 X63.77825 Y32.70341
G1 F300 X63.81810 Y32.57209
G1 F300 X63.94502 Y32.36914
G1 F300 X63.96697 Y32.28159
G1 F300 X63.96700 Y30.01591
G1 F300 X63.93842 Y29.91687
G1 F300 X63.78869 Y29.73346
G1 F300 X63.72785 Y29.68568
G1 F300 X63.63847 Y29.66701
G1 F300 X63.52872 Y29.70671
G1 F300 X63.41330 Y29.85332
G1 F300 X63.26723 Y29.95093
G1 F300 X63.18280 Y29.97654
G1 F300 X63.06027 Y29.98510
G1 F300 X63.00898 Y29.93382
G1 F300 X63.00898 Y29.59500
G1 F300 X63.11795 Y29.59046
G1 F300 X63.14487 Y29.56836
G1 F300 X63.15498 Y29.53501
G1 F300 X63.15384 Y28.62330
G1 F300 X63.11795 Y28.57959
G1 F300 X63.00898 Y28.57502
G1 F300 X63.00898 Y28.23522
G1 F300 X63.07833 Y28.14761
G1 F300 X63.09280 Y28.05983
G1 F300 X63.05727 Y27.96382
G1 F300 X62.92664 Y27.85333
G1 F300 X62.82908 Y27.70728
G1 F300 X62.78798 Y27.50075
G1 F300 X62.71069 Y27.27085
G1 F300 X62.69697 Y27.13161
G1 F300 X62.69669 Y22.69426
G1 F300 X62.66652 Y22.59784
G1 F300 X62.49471 Y22.34986
G1 F300 X62.39687 Y22.11364
G1 F300 X62.34698 Y21.86286
G1 F300 X62.34698 Y21.60719
G1 F300 X62.39687 Y21.35639
G1 F300 X62.49468 Y21.12022
G1 F300 X62.63698 Y20.90726
G1 F300 X62.77833 Y20.76109
G1 F300 X62.80964 Y20.64300
G1 F300 X62.78861 Y20.56950
G1 F300 X62.74927 Y20.51857
G1 F300 X62.54488 Y20.41933
G1 F300 X62.42067 Y20.29512
G1 F300 X62.37906 Y20.21730
G1 F300 X62.35346 Y20.13284
G1 F300 X62.34137 Y19.84869
G1 F300 X62.21793 Y19.47887
G1 F300 X62.19697 Y19.26609
G1 F300 X62.19453 Y10.64526
G1 F300 X62.14005 Y10.53581
G1 F300 X62.08153 Y10.49733
G1 F300 X62.02166 Y10.48422
G1 F300 X58.90516 Y10.48549
G1 F300 X58.79573 Y10.53998
G1 F300 X58.75723 Y10.59852
G1 F300 X58.74415 Y10.65836
G1 F300 X58.74298 Y19.26617
G1 F300 X58.72202 Y19.47884
G1 F300 X58.59858 Y19.84875
G1 F300 X58.58649 Y20.13284
G1 F300 X58.56089 Y20.21730
G1 F300 X58.51928 Y20.29512
G1 F300 X58.39507 Y20.41933
G1 F300 X58.19068 Y20.51857
G1 F300 X58.15134 Y20.56950
G1 F300 X58.13030 Y20.64300
G1 F300 X58.16162 Y20.76109
G1 F300 X58.30297 Y20.90726
G1 F300 X58.44524 Y21.12019
G1 F300 X58.54308 Y21.35641
G1 F300 X58.59297 Y21.60716
G1 F300 X58.59297 Y21.86289
G1 F300 X58.54308 Y22.11361
G1 F300 X58.44524 Y22.34988
G1 F300 X58.27341 Y22.59791
G1 F300 X58.24542 Y22.67536
G1 F300 X58.24298 Y27.13156
G1 F300 X58.22926 Y27.27085
G1 F300 X58.15197 Y27.50075
G1 F300 X58.11087 Y27.70730
G1 F300 X58.00724 Y27.86867
G1 F300 X57.98837 Y27.96689
G1 F300 X58.02835 Y28.06780
G1 F300 X58.12045 Y28.13042
G1 F300 X58.43119 Y28.15079
G1 F300 X58.54051 Y28.18190
G1 F300 X58.73282 Y28.19351
G1 F300 X58.81725 Y28.21911
G1 F300 X58.96327 Y28.31670
G1 F300 X59.06088 Y28.46277
G1 F300 X59.11638 Y28.61213
G1 F300 X59.35705 Y28.87580
G1 F300 X59.44506 Y29.04050
G1 F300 X59.49926 Y29.21919
G1 F300 X59.51760 Y29.40537
G1 F300 X59.51321 Y32.53170
G1 F300 X59.53698 Y32.61819
G1 F300 X59.66185 Y32.81710
G1 F300 X59.70170 Y32.94846
G1 F300 X59.71605 Y33.09421
G1 F300 X59.71605 Y33.72583
G1 F300 X59.70170 Y33.87163
G1 F300 X59.66185 Y34.00292
G1 F300 X59.59715 Y34.12400
G1 F300 X59.50970 Y34.23056
G1 F300 X59.41214 Y34.31458
G1 F300 X59.36906 Y34.41666
G1 F300 X59.37620 Y34.48928
G1 F300 X59.40406 Y34.54384
G1 F300 X59.50968 Y34.63947
G1 F300 X59.59713 Y34.74605
G1 F300 X59.66185 Y34.86713
G1 F300 X59.70170 Y34.99842
G1 F300 X59.71605 Y35.14422
G1 F300 X59.71605 Y35.77584
G1 F300 X59.70170 Y35.92161
G1 F300 X59.66185 Y36.05295
G1 F300 X59.53492 Y36.25593
G1 F300 X59.51298 Y36.34348
G1 F300 X59.51760 Y42.05470
G1 F300 X59.49926 Y42.24085
G1 F300 X59.44506 Y42.41954
G1 F300 X59.35702 Y42.58426
G1 F300 X59.23835 Y42.72884
G1 F300 X57.02777 Y44.93295
G1 F300 X56.97999 Y45.01743
G1 F300 X56.97298 Y50.06070
;G04 P0 ; dwell for no time -- G64 should not smooth over this point 
G1 F3000 Z3.00000 ; retract 

G1 F3000 X57.70498 Y50.94500 ; rapid move to begin. 
G1 F300 F300.00000
G1 F300 Z-0.07000
;G04 P0 ; dwell for no time -- G64 should not smooth over this point 
G1 F300 F600.00000
G1 F300 X57.70498 Y50.94500
G1 F300 X57.72540 Y51.12989
G1 F300 X57.77933 Y51.29481
G1 F300 X57.86581 Y51.44525
G1 F300 X57.99441 Y51.58808
G1 F300 X58.14059 Y51.69265
G1 F300 X58.29924 Y51.76293
G1 F300 X58.46889 Y51.79933
G1 F300 X58.64862 Y51.80062
G1 F300 X58.83073 Y51.76293
G1 F300 X59.00025 Y51.68638
G1 F300 X59.14044 Y51.58411
G1 F300 X59.25679 Y51.45539
G1 F300 X59.35288 Y51.28894
G1 F300 X59.40620 Y51.12382
G1 F300 X59.42499 Y50.94500
G1 F300 X59.40620 Y50.76621
G1 F300 X59.35065 Y50.59522
G1 F300 X59.25679 Y50.43464
G1 F300 X59.12499 Y50.29428
G1 F300 X59.12499 Y48.63698
G1 F300 X65.31096 Y42.45099
G1 F300 X65.37710 Y42.37085
G1 F300 X65.42983 Y42.27463
G1 F300 X65.46280 Y42.16999
G1 F300 X65.47499 Y42.05503
G1 F300 X65.47499 Y35.82933
G1 F300 X65.53842 Y35.79695
G1 F300 X65.60461 Y35.73667
G1 F300 X65.65140 Y35.65864
G1 F300 X65.67377 Y35.56451
G1 F300 X65.67200 Y34.85092
G1 F300 X65.61924 Y34.71305
G1 F300 X65.54195 Y34.63576
G1 F300 X65.48894 Y34.60612
G1 F300 X65.36491 Y34.58001
G1 F300 X64.42590 Y34.58301
G1 F300 X64.34104 Y34.60612
G1 F300 X64.24182 Y34.67518
G1 F300 X64.18109 Y34.76606
G1 F300 X64.15663 Y34.85816
G1 F300 X64.15798 Y35.57909
G1 F300 X64.17858 Y35.65864
G1 F300 X64.22536 Y35.73667
G1 F300 X64.29156 Y35.79695
G1 F300 X64.35498 Y35.82933
G1 F300 X64.35498 Y41.82305
G1 F300 X58.10287 Y48.08918
G1 F300 X58.04562 Y48.19626
G1 F300 X58.01489 Y48.30160
G1 F300 X58.00498 Y48.40503
G1 F300 X58.00498 Y50.29428
G1 F300 X57.87318 Y50.43464
G1 F300 X57.77933 Y50.59522
G1 F300 X57.72378 Y50.76621
G1 F300 X57.70498 Y50.94500
;G04 P0 ; dwell for no time -- G64 should not smooth over this point 
G1 F3000 Z3.00000 ; retract 

G1 F3000 X60.24498 Y50.94500 ; rapid move to begin. 
G1 F300 F300.00000
G1 F300 Z-0.07000
;G04 P0 ; dwell for no time -- G64 should not smooth over this point 
G1 F300 F600.00000
G1 F300 X60.24498 Y50.94500
G1 F300 X60.26378 Y50.76621
G1 F300 X60.31933 Y50.59522
G1 F300 X60.40581 Y50.44477
G1 F300 X60.52509 Y50.31036
G1 F300 X60.68059 Y50.19738
G1 F300 X60.83924 Y50.12709
G1 F300 X61.02136 Y50.08940
G1 F300 X61.20109 Y50.09070
G1 F300 X61.37073 Y50.12709
G1 F300 X61.54025 Y50.20365
G1 F300 X61.68044 Y50.30591
G1 F300 X61.80416 Y50.44477
G1 F300 X61.89065 Y50.59522
G1 F300 X61.94620 Y50.76621
G1 F300 X61.96499 Y50.94500
G1 F300 X61.94620 Y51.12382
G1 F300 X61.89065 Y51.29481
G1 F300 X61.80416 Y51.44525
G1 F300 X61.68488 Y51.57967
G1 F300 X61.52938 Y51.69265
G1 F300 X61.37073 Y51.76293
G1 F300 X61.18862 Y51.80062
G1 F300 X61.00889 Y51.79933
G1 F300 X60.83924 Y51.76293
G1 F300 X60.66972 Y51.68638
G1 F300 X60.52954 Y51.58411
G1 F300 X60.40581 Y51.44525
G1 F300 X60.31933 Y51.29481
G1 F300 X60.26378 Y51.12382
G1 F300 X60.24498 Y50.94500
;G04 P0 ; dwell for no time -- G64 should not smooth over this point 
G1 F3000 Z3.00000 ; retract 

G1 F3000 X62.78498 Y50.94500 ; rapid move to begin. 
G1 F300 F300.00000
G1 F300 Z-0.07000
;G04 P0 ; dwell for no time -- G64 should not smooth over this point 
G1 F300 F600.00000
G1 F300 X62.78498 Y50.94500
G1 F300 X62.80378 Y50.76621
G1 F300 X62.85933 Y50.59522
G1 F300 X62.94581 Y50.44477
G1 F300 X63.06509 Y50.31036
G1 F300 X63.22059 Y50.19738
G1 F300 X63.37924 Y50.12709
G1 F300 X63.56136 Y50.08940
G1 F300 X63.74109 Y50.09070
G1 F300 X63.91073 Y50.12709
G1 F300 X64.08025 Y50.20365
G1 F300 X64.22044 Y50.30591
G1 F300 X64.34416 Y50.44477
G1 F300 X64.43065 Y50.59522
G1 F300 X64.48620 Y50.76621
G1 F300 X64.50499 Y50.94500
G1 F300 X64.48620 Y51.12382
G1 F300 X64.43065 Y51.29481
G1 F300 X64.34416 Y51.44525
G1 F300 X64.22488 Y51.57967
G1 F300 X64.06938 Y51.69265
G1 F300 X63.91073 Y51.76293
G1 F300 X63.72862 Y51.80062
G1 F300 X63.54889 Y51.79933
G1 F300 X63.37924 Y51.76293
G1 F300 X63.20972 Y51.68638
G1 F300 X63.06954 Y51.58411
G1 F300 X62.94581 Y51.44525
G1 F300 X62.85933 Y51.29481
G1 F300 X62.80378 Y51.12382
G1 F300 X62.78498 Y50.94500
;G04 P0 ; dwell for no time -- G64 should not smooth over this point 
G1 F3000 Z3.00000 ; retract 

G1 F3000 X51.45620 Y35.11051 ; rapid move to begin. 
G1 F300 F300.00000
G1 F300 Z-0.07000
;G04 P0 ; dwell for no time -- G64 should not smooth over this point 
G1 F300 F600.00000
G1 F300 X51.45620 Y35.11051
G1 F300 X51.47804 Y35.01775
G1 F300 X51.54182 Y34.92017
G1 F300 X51.64104 Y34.85113
G1 F300 X51.74040 Y34.82621
G1 F300 X52.71965 Y34.83010
G1 F300 X52.78894 Y34.85113
G1 F300 X52.87982 Y34.91186
G1 F300 X52.95417 Y35.02476
G1 F300 X52.97377 Y35.11051
G1 F300 X52.97334 Y35.81686
G1 F300 X52.95140 Y35.90365
G1 F300 X52.90461 Y35.98168
G1 F300 X52.83842 Y36.04193
G1 F300 X52.77499 Y36.07434
G1 F300 X52.77499 Y41.82305
G1 F300 X53.88492 Y42.93341
G1 F300 X53.99983 Y43.10539
G1 F300 X54.03509 Y43.22160
G1 F300 X54.04499 Y50.29428
G1 F300 X54.17679 Y50.43464
G1 F300 X54.27065 Y50.59522
G1 F300 X54.32620 Y50.76621
G1 F300 X54.34466 Y50.95127
G1 F300 X54.32620 Y51.12382
G1 F300 X54.27288 Y51.28894
G1 F300 X54.17679 Y51.45539
G1 F300 X54.06044 Y51.58411
G1 F300 X53.92025 Y51.68638
G1 F300 X53.75073 Y51.76293
G1 F300 X53.58109 Y51.79933
G1 F300 X53.40136 Y51.80062
G1 F300 X53.21924 Y51.76293
G1 F300 X53.06059 Y51.69265
G1 F300 X52.91441 Y51.58808
G1 F300 X52.78581 Y51.44525
G1 F300 X52.69933 Y51.29481
G1 F300 X52.64279 Y51.11762
G1 F300 X52.62498 Y50.94500
G1 F300 X52.64279 Y50.77241
G1 F300 X52.69709 Y50.60108
G1 F300 X52.79318 Y50.43464
G1 F300 X52.92498 Y50.29428
G1 F300 X52.92498 Y43.55698
G1 F300 X51.81505 Y42.44662
G1 F300 X51.70014 Y42.27463
G1 F300 X51.66489 Y42.15843
G1 F300 X51.65498 Y36.07434
G1 F300 X51.59156 Y36.04193
G1 F300 X51.52536 Y35.98168
G1 F300 X51.47858 Y35.90365
G1 F300 X51.45798 Y35.82410
G1 F300 X51.45620 Y35.11051
;G04 P0 ; dwell for no time -- G64 should not smooth over this point 
G1 F3000 Z3.00000 ; retract 

G1 F3000 X45.10620 Y35.11051 ; rapid move to begin. 
G1 F300 F300.00000
G1 F300 Z-0.07000
;G04 P0 ; dwell for no time -- G64 should not smooth over this point 
G1 F300 F600.00000
G1 F300 X45.10620 Y35.11051
G1 F300 X45.12804 Y35.01775
G1 F300 X45.19182 Y34.92017
G1 F300 X45.29104 Y34.85113
G1 F300 X45.39040 Y34.82621
G1 F300 X46.38118 Y34.83241
G1 F300 X46.48217 Y34.87422
G1 F300 X46.53815 Y34.92017
G1 F300 X46.59888 Y35.01105
G1 F300 X46.62200 Y35.09593
G1 F300 X46.62200 Y35.82410
G1 F300 X46.60140 Y35.90365
G1 F300 X46.55461 Y35.98168
G1 F300 X46.48842 Y36.04193
G1 F300 X46.42499 Y36.07434
G1 F300 X46.42499 Y40.55305
G1 F300 X51.34096 Y45.46904
G1 F300 X51.41363 Y45.55896
G1 F300 X51.46435 Y45.65626
G1 F300 X51.49509 Y45.76160
G1 F300 X51.50499 Y45.86500
G1 F300 X51.50499 Y50.29428
G1 F300 X51.63679 Y50.43464
G1 F300 X51.73065 Y50.59522
G1 F300 X51.78620 Y50.76621
G1 F300 X51.80499 Y50.94500
G1 F300 X51.78457 Y51.12989
G1 F300 X51.73065 Y51.29481
G1 F300 X51.64416 Y51.44525
G1 F300 X51.51556 Y51.58808
G1 F300 X51.36938 Y51.69265
G1 F300 X51.21073 Y51.76293
G1 F300 X51.02862 Y51.80062
G1 F300 X50.84889 Y51.79933
G1 F300 X50.67924 Y51.76293
G1 F300 X50.50972 Y51.68638
G1 F300 X50.36954 Y51.58411
G1 F300 X50.24581 Y51.44525
G1 F300 X50.15933 Y51.29481
G1 F300 X50.10279 Y51.11762
G1 F300 X50.08498 Y50.94500
G1 F300 X50.10279 Y50.77241
G1 F300 X50.15709 Y50.60108
G1 F300 X50.25318 Y50.43464
G1 F300 X50.38498 Y50.29428
G1 F300 X50.38498 Y46.09698
G1 F300 X45.46901 Y41.18099
G1 F300 X45.39634 Y41.09107
G1 F300 X45.34562 Y40.99376
G1 F300 X45.31489 Y40.88843
G1 F300 X45.30498 Y40.78503
G1 F300 X45.30498 Y36.07434
G1 F300 X45.24156 Y36.04193
G1 F300 X45.17536 Y35.98168
G1 F300 X45.12858 Y35.90365
G1 F300 X45.10798 Y35.82410
G1 F300 X45.10620 Y35.11051
;G04 P0 ; dwell for no time -- G64 should not smooth over this point 
G1 F3000 Z3.00000 ; retract 

G1 F3000 X38.75620 Y35.11051 ; rapid move to begin. 
G1 F300 F300.00000
G1 F300 Z-0.07000
;G04 P0 ; dwell for no time -- G64 should not smooth over this point 
G1 F300 F600.00000
G1 F300 X38.75620 Y35.11051
G1 F300 X38.77804 Y35.01775
G1 F300 X38.84182 Y34.92017
G1 F300 X38.94104 Y34.85113
G1 F300 X39.03311 Y34.82667
G1 F300 X39.97088 Y34.82530
G1 F300 X40.08894 Y34.85113
G1 F300 X40.18815 Y34.92017
G1 F300 X40.24888 Y35.01105
G1 F300 X40.27334 Y35.10317
G1 F300 X40.27377 Y35.80952
G1 F300 X40.25140 Y35.90365
G1 F300 X40.20461 Y35.98168
G1 F300 X40.13842 Y36.04193
G1 F300 X40.07499 Y36.07434
G1 F300 X40.07499 Y38.01305
G1 F300 X48.80096 Y46.73904
G1 F300 X48.87363 Y46.82896
G1 F300 X48.95280 Y47.02004
G1 F300 X48.96499 Y47.13500
G1 F300 X48.96499 Y50.29428
G1 F300 X49.09679 Y50.43464
G1 F300 X49.19065 Y50.59522
G1 F300 X49.24620 Y50.76621
G1 F300 X49.26499 Y50.94500
G1 F300 X49.24620 Y51.12382
G1 F300 X49.18778 Y51.30040
G1 F300 X49.09679 Y51.45539
G1 F300 X48.98044 Y51.58411
G1 F300 X48.84025 Y51.68638
G1 F300 X48.67073 Y51.76293
G1 F300 X48.50109 Y51.79933
G1 F300 X48.30889 Y51.79933
G1 F300 X48.13337 Y51.76067
G1 F300 X47.96972 Y51.68638
G1 F300 X47.83441 Y51.58808
G1 F300 X47.71318 Y51.45539
G1 F300 X47.61933 Y51.29481
G1 F300 X47.56378 Y51.12382
G1 F300 X47.54531 Y50.93875
G1 F300 X47.56378 Y50.76621
G1 F300 X47.61709 Y50.60108
G1 F300 X47.71318 Y50.43464
G1 F300 X47.84498 Y50.29428
G1 F300 X47.84498 Y47.36698
G1 F300 X39.11901 Y38.64099
G1 F300 X39.04634 Y38.55107
G1 F300 X38.96717 Y38.35999
G1 F300 X38.95498 Y38.24503
G1 F300 X38.95498 Y36.07434
G1 F300 X38.89156 Y36.04193
G1 F300 X38.82536 Y35.98168
G1 F300 X38.77858 Y35.90365
G1 F300 X38.75798 Y35.82410
G1 F300 X38.75620 Y35.11051
;G04 P0 ; dwell for no time -- G64 should not smooth over this point 
G1 F3000 Z3.00000 ; retract 

G1 F3000 X32.40620 Y35.35550 ; rapid move to begin. 
G1 F300 F300.00000
G1 F300 Z-0.07000
;G04 P0 ; dwell for no time -- G64 should not smooth over this point 
G1 F300 F600.00000
G1 F300 X32.40620 Y35.35550
G1 F300 X32.40798 Y36.06911
G1 F300 X32.42858 Y36.14864
G1 F300 X32.47536 Y36.22667
G1 F300 X32.54156 Y36.28694
G1 F300 X32.60498 Y36.31935
G1 F300 X32.60498 Y40.78500
G1 F300 X32.61489 Y40.88843
G1 F300 X32.64562 Y40.99376
G1 F300 X32.69634 Y41.09107
G1 F300 X32.76505 Y41.17662
G1 F300 X32.84915 Y41.24713
G1 F300 X32.94537 Y41.29986
G1 F300 X33.05001 Y41.33283
G1 F300 X33.16500 Y41.34502
G1 F300 X38.01302 Y41.34502
G1 F300 X45.30498 Y48.63698
G1 F300 X45.30498 Y50.29428
G1 F300 X45.16581 Y50.44477
G1 F300 X45.07933 Y50.59522
G1 F300 X45.02378 Y50.76621
G1 F300 X45.00498 Y50.94500
G1 F300 X45.02279 Y51.11762
G1 F300 X45.07933 Y51.29481
G1 F300 X45.17318 Y51.45539
G1 F300 X45.29441 Y51.58808
G1 F300 X45.44059 Y51.69265
G1 F300 X45.59924 Y51.76293
G1 F300 X45.76889 Y51.79933
G1 F300 X45.94862 Y51.80062
G1 F300 X46.13073 Y51.76293
G1 F300 X46.30025 Y51.68638
G1 F300 X46.44044 Y51.58411
G1 F300 X46.56416 Y51.44525
G1 F300 X46.65065 Y51.29481
G1 F300 X46.70620 Y51.12382
G1 F300 X46.72499 Y50.94500
G1 F300 X46.70620 Y50.76621
G1 F300 X46.65065 Y50.59522
G1 F300 X46.55679 Y50.43464
G1 F300 X46.42499 Y50.29428
G1 F300 X46.42469 Y48.39913
G1 F300 X46.38435 Y48.19626
G1 F300 X46.33363 Y48.09896
G1 F300 X46.26492 Y48.01341
G1 F300 X38.64096 Y40.38904
G1 F300 X38.55104 Y40.31637
G1 F300 X38.35996 Y40.23720
G1 F300 X38.24500 Y40.22501
G1 F300 X33.72499 Y40.22501
G1 F300 X33.72499 Y36.31935
G1 F300 X33.78842 Y36.28694
G1 F300 X33.85461 Y36.22667
G1 F300 X33.90140 Y36.14864
G1 F300 X33.92334 Y36.06187
G1 F300 X33.92377 Y35.35550
G1 F300 X33.90417 Y35.26977
G1 F300 X33.82982 Y35.15687
G1 F300 X33.73894 Y35.09614
G1 F300 X33.66965 Y35.07511
G1 F300 X32.69040 Y35.07122
G1 F300 X32.59104 Y35.09614
G1 F300 X32.49182 Y35.16517
G1 F300 X32.42804 Y35.26276
G1 F300 X32.40620 Y35.35550
;G04 P0 ; dwell for no time -- G64 should not smooth over this point 
G1 F3000 Z3.00000 ; retract 

G1 F3000 X36.44409 Y29.52759 ; rapid move to begin. 
G1 F300 F300.00000
G1 F300 Z-0.07000
;G04 P0 ; dwell for no time -- G64 should not smooth over this point 
G1 F300 F600.00000
G1 F300 X36.44409 Y29.52759
G1 F300 X36.44554 Y29.44969
G1 F300 X36.49618 Y29.39904
G1 F300 X36.83500 Y29.39904
G1 F300 X36.84510 Y29.56836
G1 F300 X36.88328 Y29.59386
G1 F300 X36.98097 Y29.59500
G1 F300 X36.98097 Y29.93382
G1 F300 X36.92969 Y29.98510
G1 F300 X36.90167 Y29.98586
G1 F300 X36.80716 Y29.97654
G1 F300 X36.64488 Y29.90930
G1 F300 X36.52067 Y29.78512
G1 F300 X36.47907 Y29.70730
G1 F300 X36.44409 Y29.52759
;G04 P0 ; dwell for no time -- G64 should not smooth over this point 
G1 F3000 Z3.00000 ; retract 

G1 F3000 X32.58837 Y27.96689 ; rapid move to begin. 
G1 F300 F300.00000
G1 F300 Z-0.07000
;G04 P0 ; dwell for no time -- G64 should not smooth over this point 
G1 F300 F600.00000
G1 F300 X32.58837 Y27.96689
G1 F300 X32.60724 Y27.86867
G1 F300 X32.71087 Y27.70728
G1 F300 X32.75197 Y27.50075
G1 F300 X32.82926 Y27.27085
G1 F300 X32.84298 Y27.13159
G1 F300 X32.84542 Y22.67536
G1 F300 X32.87341 Y22.59791
G1 F300 X33.04524 Y22.34988
G1 F300 X33.14308 Y22.11364
G1 F300 X33.19297 Y21.86284
G1 F300 X33.19297 Y21.60721
G1 F300 X33.14308 Y21.35641
G1 F300 X33.04524 Y21.12017
G1 F300 X32.90295 Y20.90726
G1 F300 X32.76162 Y20.76109
G1 F300 X32.73030 Y20.64300
G1 F300 X32.75134 Y20.56950
G1 F300 X32.79068 Y20.51857
G1 F300 X32.99507 Y20.41933
G1 F300 X33.06327 Y20.36335
G1 F300 X33.16089 Y20.21730
G1 F300 X33.18649 Y20.13284
G1 F300 X33.19858 Y19.84875
G1 F300 X33.32202 Y19.47890
G1 F300 X33.35001 Y19.19477
G1 F300 X33.34298 Y10.67005
G1 F300 X33.35380 Y10.60975
G1 F300 X33.40211 Y10.53388
G1 F300 X33.50516 Y10.48549
G1 F300 X36.60993 Y10.48305
G1 F300 X36.67028 Y10.49387
G1 F300 X36.74615 Y10.54221
G1 F300 X36.79453 Y10.64526
G1 F300 X36.79697 Y19.26620
G1 F300 X36.81793 Y19.47887
G1 F300 X36.94137 Y19.84869
G1 F300 X36.95346 Y20.13284
G1 F300 X36.97906 Y20.21727
G1 F300 X37.02067 Y20.29512
G1 F300 X37.14488 Y20.41933
G1 F300 X37.34927 Y20.51857
G1 F300 X37.39400 Y20.58060
G1 F300 X37.41013 Y20.65535
G1 F300 X37.37833 Y20.76109
G1 F300 X37.23698 Y20.90726
G1 F300 X37.09468 Y21.12022
G1 F300 X36.99687 Y21.35639
G1 F300 X36.94698 Y21.60719
G1 F300 X36.94698 Y21.86286
G1 F300 X36.99687 Y22.11364
G1 F300 X37.09468 Y22.34983
G1 F300 X37.26652 Y22.59784
G1 F300 X37.29669 Y22.69426
G1 F300 X37.29697 Y27.13161
G1 F300 X37.31069 Y27.27085
G1 F300 X37.38798 Y27.50075
G1 F300 X37.42908 Y27.70730
G1 F300 X37.52664 Y27.85333
G1 F300 X37.65727 Y27.96382
G1 F300 X37.69280 Y28.05983
G1 F300 X37.67833 Y28.14761
G1 F300 X37.60898 Y28.23522
G1 F300 X37.60898 Y28.57502
G1 F300 X37.71795 Y28.57959
G1 F300 X37.75384 Y28.62330
G1 F300 X37.75498 Y29.53501
G1 F300 X37.74487 Y29.56833
G1 F300 X37.71795 Y29.59046
G1 F300 X37.60898 Y29.59500
G1 F300 X37.60898 Y29.93382
G1 F300 X37.66027 Y29.98510
G1 F300 X37.78280 Y29.97654
G1 F300 X37.86723 Y29.95093
G1 F300 X38.01330 Y29.85332
G1 F300 X38.12872 Y29.70671
G1 F300 X38.23847 Y29.66701
G1 F300 X38.29933 Y29.67418
G1 F300 X38.36801 Y29.71253
G1 F300 X38.52285 Y29.89523
G1 F300 X38.56448 Y29.98561
G1 F300 X38.56697 Y32.52652
G1 F300 X38.54502 Y32.61412
G1 F300 X38.41810 Y32.81707
G1 F300 X38.37825 Y32.94844
G1 F300 X38.36392 Y33.09421
G1 F300 X38.36392 Y33.72583
G1 F300 X38.37825 Y33.87163
G1 F300 X38.41810 Y34.00297
G1 F300 X38.48279 Y34.12400
G1 F300 X38.57025 Y34.23056
G1 F300 X38.67589 Y34.32616
G1 F300 X38.70375 Y34.38072
G1 F300 X38.71089 Y34.45331
G1 F300 X38.66783 Y34.55542
G1 F300 X38.57025 Y34.63950
G1 F300 X38.48279 Y34.74605
G1 F300 X38.41810 Y34.86710
G1 F300 X38.37825 Y34.99842
G1 F300 X38.36392 Y35.14422
G1 F300 X38.36392 Y35.77584
G1 F300 X38.37825 Y35.92161
G1 F300 X38.41810 Y36.05298
G1 F300 X38.54299 Y36.25184
G1 F300 X38.56512 Y36.32171
G1 F300 X38.56235 Y38.24467
G1 F300 X38.58069 Y38.43085
G1 F300 X38.63492 Y38.60959
G1 F300 X38.72293 Y38.77423
G1 F300 X38.84162 Y38.91886
G1 F300 X47.42377 Y47.49888
G1 F300 X47.45700 Y47.60518
G1 F300 X47.45697 Y50.06075
G1 F300 X47.42545 Y50.16461
G1 F300 X47.29047 Y50.36667
G1 F300 X47.24130 Y50.41658
G1 F300 X47.13795 Y50.44973
G1 F300 X47.02636 Y50.41477
G1 F300 X46.84480 Y50.16507
G1 F300 X46.81659 Y50.09725
G1 F300 X46.81760 Y48.40536
G1 F300 X46.79926 Y48.21917
G1 F300 X46.74506 Y48.04051
G1 F300 X46.65705 Y47.87582
G1 F300 X46.53833 Y47.73119
G1 F300 X38.91881 Y40.11170
G1 F300 X38.77418 Y39.99295
G1 F300 X38.60949 Y39.90494
G1 F300 X38.43080 Y39.85074
G1 F300 X38.24467 Y39.83240
G1 F300 X34.30000 Y39.83702
G1 F300 X34.22311 Y39.82026
G1 F300 X34.14620 Y39.75633
G1 F300 X34.11298 Y39.65000
G1 F300 X34.11298 Y36.58846
G1 F300 X34.13492 Y36.50091
G1 F300 X34.26185 Y36.29799
G1 F300 X34.30170 Y36.16662
G1 F300 X34.31605 Y36.02087
G1 F300 X34.31605 Y35.38918
G1 F300 X34.30170 Y35.24346
G1 F300 X34.26185 Y35.11209
G1 F300 X34.19713 Y34.99103
G1 F300 X34.10970 Y34.88448
G1 F300 X34.00406 Y34.78887
G1 F300 X33.97620 Y34.73431
G1 F300 X33.96906 Y34.66169
G1 F300 X34.01214 Y34.55959
G1 F300 X34.10970 Y34.47556
G1 F300 X34.19715 Y34.36901
G1 F300 X34.26185 Y34.24798
G1 F300 X34.30170 Y34.11659
G1 F300 X34.31605 Y33.97087
G1 F300 X34.31605 Y33.33917
G1 F300 X34.30170 Y33.19342
G1 F300 X34.26185 Y33.06210
G1 F300 X34.13698 Y32.86320
G1 F300 X34.11321 Y32.77671
G1 F300 X34.11760 Y29.40537
G1 F300 X34.09926 Y29.21919
G1 F300 X34.04506 Y29.04050
G1 F300 X33.95702 Y28.87578
G1 F300 X33.71638 Y28.61213
G1 F300 X33.66088 Y28.46277
G1 F300 X33.56330 Y28.31672
G1 F300 X33.41725 Y28.21911
G1 F300 X33.33282 Y28.19351
G1 F300 X33.14051 Y28.18190
G1 F300 X33.03119 Y28.15079
G1 F300 X32.72045 Y28.13042
G1 F300 X32.62835 Y28.06780
G1 F300 X32.58837 Y27.96689
;G04 P0 ; dwell for no time -- G64 should not smooth over this point 
G1 F3000 Z3.00000 ; retract 

G1 F3000 X32.28573 Y29.05576 ; rapid move to begin. 
G1 F300 F300.00000
G1 F300 Z-0.07000
;G04 P0 ; dwell for no time -- G64 should not smooth over this point 
G1 F300 F600.00000
G1 F300 X32.28573 Y29.05576
G1 F300 X32.29121 Y29.16640
G1 F300 X32.32025 Y29.27977
G1 F300 X32.38499 Y29.40250
G1 F300 X32.39510 Y29.56833
G1 F300 X32.43328 Y29.59386
G1 F300 X32.56299 Y29.59500
G1 F300 X32.60498 Y29.63699
G1 F300 X32.60498 Y33.04069
G1 F300 X32.54156 Y33.07308
G1 F300 X32.47536 Y33.13335
G1 F300 X32.42858 Y33.21138
G1 F300 X32.40663 Y33.29817
G1 F300 X32.40620 Y34.00452
G1 F300 X32.42581 Y34.09027
G1 F300 X32.50016 Y34.20317
G1 F300 X32.59104 Y34.26391
G1 F300 X32.66033 Y34.28491
G1 F300 X33.63957 Y34.28880
G1 F300 X33.72525 Y34.26919
G1 F300 X33.79195 Y34.23426
G1 F300 X33.86924 Y34.15697
G1 F300 X33.92200 Y34.01910
G1 F300 X33.92377 Y33.30551
G1 F300 X33.90140 Y33.21138
G1 F300 X33.85461 Y33.13335
G1 F300 X33.78842 Y33.07308
G1 F300 X33.72499 Y33.04069
G1 F300 X33.72499 Y29.40501
G1 F300 X33.71280 Y29.29005
G1 F300 X33.67983 Y29.18538
G1 F300 X33.62710 Y29.08916
G1 F300 X33.30498 Y28.75310
G1 F300 X33.30384 Y28.62330
G1 F300 X33.28740 Y28.59259
G1 F300 X33.25669 Y28.57616
G1 F300 X33.07145 Y28.57502
G1 F300 X32.93869 Y28.53323
G1 F300 X32.82192 Y28.52582
G1 F300 X32.70000 Y28.54413
G1 F300 X32.61865 Y28.57502
G1 F300 X32.42202 Y28.57959
G1 F300 X32.38613 Y28.62330
G1 F300 X32.38499 Y28.77016
G1 F300 X32.30600 Y28.93415
G1 F300 X32.28573 Y29.05576
;G04 P0 ; dwell for no time -- G64 should not smooth over this point 
G1 F3000 Z3.00000 ; retract 

G1 F3000 X30.09406 Y29.52757 ; rapid move to begin. 
G1 F300 F300.00000
G1 F300 Z-0.07000
;G04 P0 ; dwell for no time -- G64 should not smooth over this point 
G1 F300 F600.00000
G1 F300 X30.09406 Y29.52757
G1 F300 X30.12907 Y29.70730
G1 F300 X30.17070 Y29.78515
G1 F300 X30.29488 Y29.90933
G1 F300 X30.45716 Y29.97654
G1 F300 X30.55164 Y29.98586
G1 F300 X30.57969 Y29.98510
G1 F300 X30.63097 Y29.93382
G1 F300 X30.63097 Y29.59500
G1 F300 X30.53328 Y29.59386
G1 F300 X30.49510 Y29.56833
G1 F300 X30.48500 Y29.39904
G1 F300 X30.14618 Y29.39904
G1 F300 X30.09554 Y29.44969
G1 F300 X30.09406 Y29.52757
;G04 P0 ; dwell for no time -- G64 should not smooth over this point 
G1 F3000 Z3.00000 ; retract 

G1 F3000 X30.09406 Y28.64248 ; rapid move to begin. 
G1 F300 F300.00000
G1 F300 Z-0.07000
;G04 P0 ; dwell for no time -- G64 should not smooth over this point 
G1 F300 F600.00000
G1 F300 X30.09406 Y28.64248
G1 F300 X30.12907 Y28.46277
G1 F300 X30.22668 Y28.31670
G1 F300 X30.29488 Y28.26072
G1 F300 X30.45716 Y28.19351
G1 F300 X30.55164 Y28.18419
G1 F300 X30.57969 Y28.18495
G1 F300 X30.63097 Y28.23623
G1 F300 X30.63097 Y28.57502
G1 F300 X30.53328 Y28.57616
G1 F300 X30.49510 Y28.60169
G1 F300 X30.48500 Y28.77103
G1 F300 X30.14618 Y28.77103
G1 F300 X30.09554 Y28.72038
G1 F300 X30.09406 Y28.64248
;G04 P0 ; dwell for no time -- G64 should not smooth over this point 
G1 F3000 Z3.00000 ; retract 

G1 F3000 X25.66405 Y25.05729 ; rapid move to begin. 
G1 F300 F300.00000
G1 F300 Z-0.07000
;G04 P0 ; dwell for no time -- G64 should not smooth over this point 
G1 F300 F600.00000
G1 F300 X25.66405 Y25.05729
G1 F300 X25.67345 Y25.15287
G1 F300 X25.74068 Y25.31513
G1 F300 X25.79666 Y25.38335
G1 F300 X25.94266 Y25.48092
G1 F300 X26.12351 Y25.51604
G1 F300 X26.45120 Y25.51361
G1 F300 X26.50098 Y25.46382
G1 F300 X26.50098 Y25.12471
G1 F300 X26.32313 Y25.12267
G1 F300 X26.21426 Y25.08843
G1 F300 X26.10969 Y24.99473
G1 F300 X26.06458 Y24.89153
G1 F300 X25.71617 Y24.89153
G1 F300 X25.66580 Y24.94190
G1 F300 X25.66405 Y25.05729
;G04 P0 ; dwell for no time -- G64 should not smooth over this point 
G1 F3000 Z3.00000 ; retract 

G1 F3000 X27.12899 Y25.12471 ; rapid move to begin. 
G1 F300 F300.00000
G1 F300 Z-0.07000
;G04 P0 ; dwell for no time -- G64 should not smooth over this point 
G1 F300 F600.00000
G1 F300 X27.12899 Y25.12471
G1 F300 X27.30685 Y25.12267
G1 F300 X27.41571 Y25.08843
G1 F300 X27.52028 Y24.99473
G1 F300 X27.56539 Y24.89153
G1 F300 X27.91378 Y24.89153
G1 F300 X27.96417 Y24.94190
G1 F300 X27.95650 Y25.15285
G1 F300 X27.88927 Y25.31513
G1 F300 X27.76506 Y25.43934
G1 F300 X27.60281 Y25.50654
G1 F300 X27.17878 Y25.51361
G1 F300 X27.12899 Y25.46382
G1 F300 X27.12899 Y25.12471
;G04 P0 ; dwell for no time -- G64 should not smooth over this point 
G1 F3000 Z3.00000 ; retract 

G1 F3000 X30.98499 Y21.73500 ; rapid move to begin. 
G1 F300 F300.00000
G1 F300 Z-0.07000
;G04 P0 ; dwell for no time -- G64 should not smooth over this point 
G1 F300 F600.00000
G1 F300 X30.98499 Y21.73500
G1 F300 X31.00488 Y21.54582
G1 F300 X31.06142 Y21.37074
G1 F300 X31.15535 Y21.20538
G1 F300 X31.28164 Y21.06320
G1 F300 X31.44557 Y20.94407
G1 F300 X31.61377 Y20.86955
G1 F300 X31.80615 Y20.82967
G1 F300 X31.99632 Y20.83099
G1 F300 X32.17620 Y20.86955
G1 F300 X32.34440 Y20.94407
G1 F300 X32.49901 Y21.05479
G1 F300 X32.63462 Y21.20538
G1 F300 X32.72855 Y21.37074
G1 F300 X32.78509 Y21.54582
G1 F300 X32.80465 Y21.74127
G1 F300 X32.78509 Y21.92420
G1 F300 X32.72855 Y22.09929
G1 F300 X32.62723 Y22.27478
G1 F300 X32.45499 Y22.44722
G1 F300 X32.45499 Y27.08500
G1 F300 X32.44113 Y27.20751
G1 F300 X32.40643 Y27.31314
G1 F300 X32.35499 Y27.40039
G1 F300 X32.35383 Y27.54672
G1 F300 X32.33742 Y27.57743
G1 F300 X32.30668 Y27.59387
G1 F300 X32.11959 Y27.59501
G1 F300 X31.95972 Y27.64096
G1 F300 X31.84273 Y27.64228
G1 F300 X31.67039 Y27.59501
G1 F300 X31.47201 Y27.59044
G1 F300 X31.43615 Y27.54672
G1 F300 X31.43498 Y27.40039
G1 F300 X31.38355 Y27.31314
G1 F300 X31.34722 Y27.20144
G1 F300 X31.33498 Y27.08503
G1 F300 X31.33498 Y22.44722
G1 F300 X31.16274 Y22.27478
G1 F300 X31.06650 Y22.11074
G1 F300 X31.00488 Y21.92420
G1 F300 X30.98499 Y21.73500
;G04 P0 ; dwell for no time -- G64 should not smooth over this point 
G1 F3000 Z3.00000 ; retract 

G1 F3000 X36.44409 Y28.64245 ; rapid move to begin. 
G1 F300 F300.00000
G1 F300 Z-0.07000
;G04 P0 ; dwell for no time -- G64 should not smooth over this point 
G1 F300 F600.00000
G1 F300 X36.44409 Y28.64245
G1 F300 X36.44554 Y28.72038
G1 F300 X36.49618 Y28.77103
G1 F300 X36.83500 Y28.77103
G1 F300 X36.84510 Y28.60169
G1 F300 X36.88328 Y28.57616
G1 F300 X36.98097 Y28.57502
G1 F300 X36.98097 Y28.23623
G1 F300 X36.92969 Y28.18495
G1 F300 X36.90167 Y28.18419
G1 F300 X36.80713 Y28.19351
G1 F300 X36.64488 Y28.26072
G1 F300 X36.52067 Y28.38495
G1 F300 X36.47907 Y28.46277
G1 F300 X36.44409 Y28.64245
;G04 P0 ; dwell for no time -- G64 should not smooth over this point 
G1 F3000 Z3.00000 ; retract 

G1 F3000 X38.63573 Y29.05576 ; rapid move to begin. 
G1 F300 F300.00000
G1 F300 Z-0.07000
;G04 P0 ; dwell for no time -- G64 should not smooth over this point 
G1 F300 F600.00000
G1 F300 X38.63573 Y29.05576
G1 F300 X38.64121 Y29.16640
G1 F300 X38.67025 Y29.27977
G1 F300 X38.73499 Y29.40250
G1 F300 X38.74510 Y29.56836
G1 F300 X38.78328 Y29.59386
G1 F300 X38.91299 Y29.59500
G1 F300 X38.95498 Y29.63699
G1 F300 X38.95498 Y32.79568
G1 F300 X38.89156 Y32.82809
G1 F300 X38.82630 Y32.88723
G1 F300 X38.76641 Y33.00363
G1 F300 X38.75498 Y33.08512
G1 F300 X38.75620 Y33.75961
G1 F300 X38.77581 Y33.84526
G1 F300 X38.85016 Y33.95817
G1 F300 X38.94104 Y34.01890
G1 F300 X39.01033 Y34.03993
G1 F300 X39.98957 Y34.04381
G1 F300 X40.07525 Y34.02418
G1 F300 X40.14195 Y33.98926
G1 F300 X40.21924 Y33.91196
G1 F300 X40.27200 Y33.77409
G1 F300 X40.27377 Y33.06050
G1 F300 X40.25140 Y32.96637
G1 F300 X40.20461 Y32.88834
G1 F300 X40.13842 Y32.82809
G1 F300 X40.07499 Y32.79568
G1 F300 X40.07499 Y29.40501
G1 F300 X40.06280 Y29.29005
G1 F300 X40.02983 Y29.18538
G1 F300 X39.97710 Y29.08916
G1 F300 X39.65498 Y28.75307
G1 F300 X39.65384 Y28.62330
G1 F300 X39.63740 Y28.59259
G1 F300 X39.60669 Y28.57616
G1 F300 X39.42145 Y28.57502
G1 F300 X39.28869 Y28.53323
G1 F300 X39.17192 Y28.52582
G1 F300 X39.05000 Y28.54413
G1 F300 X38.96865 Y28.57502
G1 F300 X38.77202 Y28.57959
G1 F300 X38.73613 Y28.62330
G1 F300 X38.73499 Y28.77019
G1 F300 X38.65600 Y28.93415
G1 F300 X38.63573 Y29.05576
;G04 P0 ; dwell for no time -- G64 should not smooth over this point 
G1 F3000 Z3.00000 ; retract 

G1 F3000 X38.93837 Y27.96689 ; rapid move to begin. 
G1 F300 F300.00000
G1 F300 Z-0.07000
;G04 P0 ; dwell for no time -- G64 should not smooth over this point 
G1 F300 F600.00000
G1 F300 X38.93837 Y27.96689
G1 F300 X38.95724 Y27.86867
G1 F300 X39.06087 Y27.70728
G1 F300 X39.10197 Y27.50075
G1 F300 X39.17926 Y27.27085
G1 F300 X39.19298 Y27.13159
G1 F300 X39.19542 Y22.67536
G1 F300 X39.22341 Y22.59791
G1 F300 X39.39524 Y22.34988
G1 F300 X39.49308 Y22.11364
G1 F300 X39.54297 Y21.86284
G1 F300 X39.54297 Y21.60721
G1 F300 X39.49308 Y21.35641
G1 F300 X39.39524 Y21.12017
G1 F300 X39.25295 Y20.90726
G1 F300 X39.11162 Y20.76109
G1 F300 X39.08030 Y20.64300
G1 F300 X39.10134 Y20.56950
G1 F300 X39.14068 Y20.51857
G1 F300 X39.34507 Y20.41933
G1 F300 X39.41327 Y20.36335
G1 F300 X39.51089 Y20.21730
G1 F300 X39.53649 Y20.13284
G1 F300 X39.54858 Y19.84875
G1 F300 X39.67202 Y19.47884
G1 F300 X39.69298 Y19.26620
G1 F300 X39.69298 Y10.67005
G1 F300 X39.70380 Y10.60975
G1 F300 X39.75211 Y10.53388
G1 F300 X39.85516 Y10.48549
G1 F300 X42.95993 Y10.48305
G1 F300 X43.02028 Y10.49387
G1 F300 X43.09615 Y10.54221
G1 F300 X43.14453 Y10.64526
G1 F300 X43.14697 Y19.26620
G1 F300 X43.16793 Y19.47887
G1 F300 X43.29137 Y19.84869
G1 F300 X43.30346 Y20.13284
G1 F300 X43.32906 Y20.21727
G1 F300 X43.37067 Y20.29512
G1 F300 X43.49488 Y20.41933
G1 F300 X43.69927 Y20.51857
G1 F300 X43.74400 Y20.58060
G1 F300 X43.76013 Y20.65535
G1 F300 X43.72833 Y20.76109
G1 F300 X43.58698 Y20.90726
G1 F300 X43.44468 Y21.12022
G1 F300 X43.34687 Y21.35639
G1 F300 X43.29698 Y21.60719
G1 F300 X43.29698 Y21.86286
G1 F300 X43.34687 Y22.11364
G1 F300 X43.44468 Y22.34983
G1 F300 X43.61652 Y22.59784
G1 F300 X43.64669 Y22.69426
G1 F300 X43.64697 Y27.13161
G1 F300 X43.66069 Y27.27085
G1 F300 X43.73798 Y27.50075
G1 F300 X43.77908 Y27.70730
G1 F300 X43.87664 Y27.85333
G1 F300 X44.00727 Y27.96382
G1 F300 X44.04280 Y28.05983
G1 F300 X44.02833 Y28.14761
G1 F300 X43.95898 Y28.23522
G1 F300 X43.95898 Y28.57502
G1 F300 X44.06795 Y28.57959
G1 F300 X44.10384 Y28.62330
G1 F300 X44.10498 Y29.53501
G1 F300 X44.09487 Y29.56833
G1 F300 X44.06795 Y29.59046
G1 F300 X43.95898 Y29.59500
G1 F300 X43.95898 Y29.93382
G1 F300 X44.01027 Y29.98510
G1 F300 X44.13280 Y29.97654
G1 F300 X44.21723 Y29.95093
G1 F300 X44.36330 Y29.85332
G1 F300 X44.47872 Y29.70671
G1 F300 X44.58847 Y29.66701
G1 F300 X44.67785 Y29.68568
G1 F300 X44.73869 Y29.73346
G1 F300 X44.88842 Y29.91687
G1 F300 X44.91674 Y30.01060
G1 F300 X44.91697 Y32.52657
G1 F300 X44.89502 Y32.61412
G1 F300 X44.76810 Y32.81707
G1 F300 X44.72825 Y32.94844
G1 F300 X44.71392 Y33.09421
G1 F300 X44.71392 Y33.72583
G1 F300 X44.72825 Y33.87163
G1 F300 X44.76810 Y34.00297
G1 F300 X44.83279 Y34.12400
G1 F300 X44.92025 Y34.23056
G1 F300 X45.02589 Y34.32616
G1 F300 X45.05375 Y34.38072
G1 F300 X45.06089 Y34.45331
G1 F300 X45.01783 Y34.55542
G1 F300 X44.92025 Y34.63950
G1 F300 X44.83279 Y34.74605
G1 F300 X44.76810 Y34.86710
G1 F300 X44.72825 Y34.99842
G1 F300 X44.71392 Y35.14422
G1 F300 X44.71392 Y35.77584
G1 F300 X44.72825 Y35.92161
G1 F300 X44.76810 Y36.05298
G1 F300 X44.89299 Y36.25184
G1 F300 X44.91700 Y36.34351
G1 F300 X44.91235 Y40.78467
G1 F300 X44.93069 Y40.97085
G1 F300 X44.98489 Y41.14957
G1 F300 X45.07290 Y41.31423
G1 F300 X45.19162 Y41.45886
G1 F300 X49.94221 Y46.20295
G1 F300 X49.98275 Y46.26360
G1 F300 X49.99700 Y46.33518
G1 F300 X49.99697 Y50.06075
G1 F300 X49.96545 Y50.16461
G1 F300 X49.83047 Y50.36667
G1 F300 X49.76852 Y50.42382
G1 F300 X49.67205 Y50.44973
G1 F300 X49.60342 Y50.43555
G1 F300 X49.55186 Y50.40248
G1 F300 X49.38481 Y50.16507
G1 F300 X49.35659 Y50.09725
G1 F300 X49.35760 Y47.13533
G1 F300 X49.33926 Y46.94920
G1 F300 X49.28506 Y46.77051
G1 F300 X49.19702 Y46.60579
G1 F300 X49.07830 Y46.46116
G1 F300 X40.48896 Y37.86839
G1 F300 X40.46542 Y37.79976
G1 F300 X40.46298 Y36.34358
G1 F300 X40.48492 Y36.25593
G1 F300 X40.61185 Y36.05298
G1 F300 X40.65170 Y35.92161
G1 F300 X40.66605 Y35.77587
G1 F300 X40.66605 Y35.14417
G1 F300 X40.65170 Y34.99842
G1 F300 X40.61185 Y34.86710
G1 F300 X40.54715 Y34.74605
G1 F300 X40.45970 Y34.63950
G1 F300 X40.35406 Y34.54384
G1 F300 X40.32620 Y34.48928
G1 F300 X40.31906 Y34.41666
G1 F300 X40.36214 Y34.31458
G1 F300 X40.45970 Y34.23056
G1 F300 X40.54715 Y34.12400
G1 F300 X40.61185 Y34.00295
G1 F300 X40.65170 Y33.87163
G1 F300 X40.66605 Y33.72586
G1 F300 X40.66605 Y33.09418
G1 F300 X40.65170 Y32.94846
G1 F300 X40.61185 Y32.81707
G1 F300 X40.48698 Y32.61819
G1 F300 X40.46321 Y32.53170
G1 F300 X40.46760 Y29.40537
G1 F300 X40.44926 Y29.21919
G1 F300 X40.39506 Y29.04050
G1 F300 X40.30702 Y28.87578
G1 F300 X40.06638 Y28.61213
G1 F300 X40.01088 Y28.46277
G1 F300 X39.91330 Y28.31672
G1 F300 X39.76725 Y28.21911
G1 F300 X39.68282 Y28.19351
G1 F300 X39.49051 Y28.18190
G1 F300 X39.38119 Y28.15079
G1 F300 X39.07045 Y28.13042
G1 F300 X38.97835 Y28.06780
G1 F300 X38.93837 Y27.96689
;G04 P0 ; dwell for no time -- G64 should not smooth over this point 
G1 F3000 Z3.00000 ; retract 

G1 F3000 X42.79409 Y28.64245 ; rapid move to begin. 
G1 F300 F300.00000
G1 F300 Z-0.07000
;G04 P0 ; dwell for no time -- G64 should not smooth over this point 
G1 F300 F600.00000
G1 F300 X42.79409 Y28.64245
G1 F300 X42.79554 Y28.72038
G1 F300 X42.84618 Y28.77103
G1 F300 X43.18500 Y28.77103
G1 F300 X43.19510 Y28.60169
G1 F300 X43.23328 Y28.57616
G1 F300 X43.33097 Y28.57502
G1 F300 X43.33097 Y28.23623
G1 F300 X43.27969 Y28.18495
G1 F300 X43.25167 Y28.18419
G1 F300 X43.15713 Y28.19351
G1 F300 X42.99488 Y28.26072
G1 F300 X42.87067 Y28.38495
G1 F300 X42.82907 Y28.46277
G1 F300 X42.79409 Y28.64245
;G04 P0 ; dwell for no time -- G64 should not smooth over this point 
G1 F3000 Z3.00000 ; retract 

G1 F3000 X42.79409 Y29.52759 ; rapid move to begin. 
G1 F300 F300.00000
G1 F300 Z-0.07000
;G04 P0 ; dwell for no time -- G64 should not smooth over this point 
G1 F300 F600.00000
G1 F300 X42.79409 Y29.52759
G1 F300 X42.79554 Y29.44969
G1 F300 X42.84618 Y29.39904
G1 F300 X43.18500 Y29.39904
G1 F300 X43.19510 Y29.56836
G1 F300 X43.23328 Y29.59386
G1 F300 X43.33097 Y29.59500
G1 F300 X43.33097 Y29.93382
G1 F300 X43.27969 Y29.98510
G1 F300 X43.25167 Y29.98586
G1 F300 X43.15716 Y29.97654
G1 F300 X42.99488 Y29.90930
G1 F300 X42.87067 Y29.78512
G1 F300 X42.82907 Y29.70730
G1 F300 X42.79409 Y29.52759
;G04 P0 ; dwell for no time -- G64 should not smooth over this point 
G1 F3000 Z3.00000 ; retract 

G1 F3000 X44.98573 Y29.05576 ; rapid move to begin. 
G1 F300 F300.00000
G1 F300 Z-0.07000
;G04 P0 ; dwell for no time -- G64 should not smooth over this point 
G1 F300 F600.00000
G1 F300 X44.98573 Y29.05576
G1 F300 X44.99121 Y29.16640
G1 F300 X45.02025 Y29.27977
