; pcb2gcode 2.0.0 
; Software-independent Gcode 

G94 ; Millimeters per minute feed rate. 
G21 ; Units == Millimeters. 

G90 ; Absolute coordinates. 
;G1 F3000 S10000 ; RPM spindle speed. 
G1 F300 F600.00000 ; Feedrate. 


G1 F3000 Z3.00000 ;Retract to tool change height
;T0
;M5      ;Spindle stop.
;G04 P1.00000 ;Wait for spindle to stop
;MSG, Change tool bit to cutter diameter 0.12000mm
;M6      ;Tool change.
;M0      ;Temporary machine stop.
;M3 ; Spindle on clockwise. 
;G04 P1.00000 ;Wait for spindle to get up to speed
;G04 P0 ; dwell for no time -- G64 should not smooth over this point 
G1 F3000 Z3.00000 ; retract 

G1 F3000 X0.08498 Y0.14500 ; rapid move to begin. 
G1 F300 Z-0.07000 F300.00000 ; plunge. 
;G04 P0 ; dwell for no time -- G64 should not smooth over this point 
G1 F300 F600.00000
G1 F300 X0.08498 Y53.48500
G1 F300 X0.11165 Y53.53491
G1 F300 X0.14500 Y53.54502
G1 F300 X64.28000 Y53.54502
G1 F300 X64.32242 Y53.52744
G1 F300 X66.23489 Y51.61335
G1 F300 X66.24499 Y51.58000
G1 F300 X66.24499 Y40.80987
G1 F300 X68.76742 Y38.28744
G1 F300 X68.78499 Y38.24500
G1 F300 X68.78499 Y5.22500
G1 F300 X68.76742 Y5.18258
G1 F300 X66.24499 Y2.66016
G1 F300 X66.24499 Y0.14500
G1 F300 X66.21832 Y0.09511
G1 F300 X66.18500 Y0.08501
G1 F300 X0.14500 Y0.08501
G1 F300 X0.10256 Y0.10258
G1 F300 X0.08498 Y0.14500

;G04 P0 ; dwell for no time -- G64 should not smooth over this point 
G1 F3000 Z3.000 ; retract 

;M5 ; Spindle off. 
;G04 P1.000000
;M9 ; Coolant off. 
M0 ; Program end. 

